;Generated with Cura_SteamEngine 15.01
; Default start code
; Set bed temperature
M140 S60
; Activate all used extruder
M104 T0 S190
G28 ; Home extruder
G1 Z15 F5000
M107 ; Turn off fan
G90 ; Absolute positioning
M82 ; Extruder in absolute mode
G92 E0 ; Reset extruder position
; Wait for hot bed to reach temperature
M190 S60
; Wait for all used extruders to reach temperature
M109 T0 S190
;Layer count: 10
;LAYER:0
M107
G0 F9000 X54.800 Y54.800 Z0.200
;TYPE:SKIRT
G1 F1800 X-54.800 Y54.800 E3.64531
G1 X-54.800 Y-54.800 E7.29062
G1 X54.800 Y-54.800 E10.93593
G1 X54.800 Y54.800 E14.58124
G0 F9000 X54.400 Y54.400
G1 F1800 X-54.400 Y54.400 E18.19995
G1 X-54.400 Y-54.400 E21.81865
G1 X54.400 Y-54.400 E25.43735
G1 X54.400 Y54.400 E29.05605
G0 F9000 X54.000 Y54.000
G1 F1800 X-54.000 Y54.000 E32.64815
G1 X-54.000 Y-54.000 E36.24024
G1 X54.000 Y-54.000 E39.83234
G1 X54.000 Y54.000 E43.42443
G0 F9000 X53.600 Y53.600
G1 F1800 X-53.600 Y53.600 E46.98992
G1 X-53.600 Y-53.600 E50.55541
G1 X53.600 Y-53.600 E54.12089
G1 X53.600 Y53.600 E57.68638
G0 F9000 X53.200 Y53.200
G1 F1800 X-53.200 Y53.200 E61.22526
G1 X-53.200 Y-53.200 E64.76413
G1 X53.200 Y-53.200 E68.30301
G1 X53.200 Y53.200 E71.84189
G1 F3000 E66.84189
G1 Z0.700
G0 F9000 X49.400 Y49.400
;TYPE:WALL-INNER
G1 Z0.200
G1 F3000 E71.84189
G1 F1800 X-49.400 Y49.400 E75.12799
G1 X-49.400 Y-49.400 E78.41409
G1 X49.400 Y-49.400 E81.70020
G1 X49.400 Y49.400 E84.98630
G0 F9000 X34.570 Y34.570
G1 F1800 X37.637 Y30.573 E85.15387
G1 X37.844 Y30.302 E85.16521
G1 X39.903 Y25.333 E85.34410
G1 X40.560 Y20.339 E85.51164
G1 X40.605 Y20.001 E85.52298
G1 X39.948 Y15.003 E85.69064
G1 X39.902 Y14.665 E85.70199
G1 X37.844 Y9.697 E85.88084
G1 X34.777 Y5.700 E86.04841
G1 X34.570 Y5.429 E86.05975
G1 X30.303 Y2.155 E86.23863
G1 X25.333 Y0.096 E86.41756
G1 X20.000 Y-0.605 E86.59646
G1 X14.666 Y0.096 E86.77540
G1 X9.697 Y2.155 E86.95429
G1 X5.429 Y5.429 E87.13320
G1 X2.362 Y9.427 E87.30080
G1 X2.155 Y9.698 E87.31214
G1 X0.096 Y14.666 E87.49101
G1 X-0.560 Y19.661 E87.65857
G1 X-0.605 Y19.999 E87.66991
G1 X0.051 Y24.996 E87.83754
G1 X0.097 Y25.334 E87.84888
G1 X2.155 Y30.303 E88.02777
G1 X5.221 Y34.298 E88.19526
G1 X5.429 Y34.570 E88.20665
G1 X9.697 Y37.844 E88.38556
G1 X14.666 Y39.903 E88.56446
G1 X20.000 Y40.605 E88.74339
G1 X25.333 Y39.903 E88.92230
G1 X30.303 Y37.844 E89.10123
G1 X34.570 Y34.570 E89.28011
G0 F9000 X30.301 Y37.842
G0 X25.331 Y39.901
G0 X20.000 Y40.603
G0 X14.668 Y39.901
G0 X-14.400 Y40.600
G1 F1800 X-14.400 Y14.400 E90.15153
G1 X-40.600 Y14.400 E91.02294
G1 X-40.600 Y40.600 E91.89436
G1 X-14.400 Y40.600 E92.76577
G0 F9000 X-14.459 Y14.459
G0 X-27.500 Y-7.149
G1 F1800 X-14.307 Y-30.000 E93.64338
G1 X-14.654 Y-30.600 E93.66643
G1 X-40.346 Y-30.600 E94.52095
G1 X-40.693 Y-30.000 E94.54400
G1 X-27.500 Y-7.149 E95.42161
G0 F9000 X-8.963 Y-21.036
G1 F1800 X-7.803 Y-20.145 E95.47026
G1 X-6.450 Y-19.585 E95.51896
G1 X-5.000 Y-19.395 E95.56760
G1 X-3.549 Y-19.585 E95.61627
G1 X-2.197 Y-20.145 E95.66494
G1 X-1.036 Y-21.036 E95.71362
G1 X-0.145 Y-22.197 E95.76230
G1 X0.360 Y-23.415 E95.80615
G1 X0.415 Y-23.550 E95.81100
G1 X0.585 Y-24.853 E95.85470
G1 X0.605 Y-24.998 E95.85957
G1 X0.434 Y-26.309 E95.90355
G1 X0.414 Y-26.452 E95.90835
G1 X-0.090 Y-27.667 E95.95210
G1 X-0.144 Y-27.802 E95.95693
G1 X-1.036 Y-28.963 E96.00563
G1 X-2.197 Y-29.854 E96.05431
G1 X-3.548 Y-30.414 E96.10295
G1 X-5.000 Y-30.605 E96.15166
G1 X-6.451 Y-30.414 E96.20033
G1 X-7.803 Y-29.854 E96.24901
G1 X-8.963 Y-28.963 E96.29766
G1 X-9.854 Y-27.803 E96.34631
G1 X-10.359 Y-26.584 E96.39019
G1 X-10.414 Y-26.450 E96.39501
G1 X-10.585 Y-25.147 E96.43872
G1 X-10.605 Y-25.002 E96.44359
G1 X-10.433 Y-23.690 E96.48760
G1 X-10.413 Y-23.546 E96.49243
G1 X-9.910 Y-22.333 E96.53611
G1 X-9.855 Y-22.198 E96.54096
G1 X-8.963 Y-21.036 E96.58968
G0 F9000 X-6.449 Y-19.587
G0 X-3.550 Y-19.587
G0 X-1.038 Y-21.038
G0 X12.483 Y-24.326
G1 F1800 X12.743 Y-23.698 E96.61229
G1 X13.157 Y-23.157 E96.63494
G1 X13.698 Y-22.743 E96.65760
G1 X14.326 Y-22.483 E96.68021
G1 X15.000 Y-22.395 E96.70282
G1 X15.673 Y-22.483 E96.72539
G1 X16.299 Y-22.741 E96.74791
G1 X16.383 Y-22.804 E96.75140
G1 X16.842 Y-23.157 E96.77066
G1 X17.256 Y-23.698 E96.79332
G1 X17.515 Y-24.325 E96.81588
G1 X17.605 Y-25.000 E96.83853
G1 X17.515 Y-25.674 E96.86115
G1 X17.256 Y-26.302 E96.88374
G1 X16.840 Y-26.845 E96.90649
G1 X16.760 Y-26.905 E96.90982
G1 X16.302 Y-27.256 E96.92901
G1 X15.674 Y-27.515 E96.95161
G1 X15.000 Y-27.605 E96.97422
G1 X14.325 Y-27.515 E96.99687
G1 X13.698 Y-27.256 E97.01944
G1 X13.157 Y-26.842 E97.04209
G1 X12.743 Y-26.302 E97.06472
G1 X12.483 Y-25.673 E97.08736
G1 X12.395 Y-25.000 E97.10994
G1 X12.483 Y-24.326 E97.13254
G0 F9000 X13.700 Y-22.744
G0 X15.672 Y-22.485
G0 X17.255 Y-23.700
G0 X21.413 Y-25.130
G1 F1800 X21.394 Y-25.007 E97.13668
G1 X21.502 Y-24.178 E97.16449
G1 X21.520 Y-24.060 E97.16846
G1 X21.830 Y-23.312 E97.19539
G1 X21.876 Y-23.199 E97.19945
G1 X22.374 Y-22.550 E97.22666
G1 X22.447 Y-22.452 E97.23072
G1 X23.198 Y-21.877 E97.26218
G1 X24.067 Y-21.517 E97.29346
G1 X25.000 Y-21.395 E97.32476
G1 X25.932 Y-21.517 E97.35602
G1 X26.802 Y-21.877 E97.38734
G1 X27.549 Y-22.450 E97.41865
G1 X28.052 Y-23.105 E97.44612
G1 X28.123 Y-23.201 E97.45009
G1 X28.437 Y-23.959 E97.47738
G1 X28.482 Y-24.069 E97.48133
G1 X28.587 Y-24.870 E97.50820
G1 X28.606 Y-24.993 E97.51234
G1 X28.497 Y-25.822 E97.54015
G1 X28.479 Y-25.939 E97.54409
G1 X28.167 Y-26.692 E97.57120
G1 X28.123 Y-26.801 E97.57511
G1 X27.621 Y-27.455 E97.60253
G1 X27.552 Y-27.547 E97.60635
G1 X26.802 Y-28.122 E97.63779
G1 X25.933 Y-28.481 E97.66906
G1 X25.000 Y-28.605 E97.70036
G1 X24.066 Y-28.481 E97.73170
G1 X23.198 Y-28.122 E97.76294
G1 X22.450 Y-27.549 E97.79428
G1 X21.947 Y-26.895 E97.82172
G1 X21.875 Y-26.799 E97.82572
G1 X21.562 Y-26.040 E97.85302
G1 X21.517 Y-25.930 E97.85698
G1 X21.413 Y-25.130 E97.88381
G0 F9000 X21.809 Y-25.069
;TYPE:WALL-OUTER
G1 F1800 X21.798 Y-25.002 E97.88607
G1 X21.898 Y-24.234 E97.91183
G1 X21.908 Y-24.169 E97.91401
G1 X22.201 Y-23.460 E97.93953
G1 X22.226 Y-23.400 E97.94169
G1 X22.695 Y-22.788 E97.96734
G1 X22.734 Y-22.736 E97.96950
G1 X23.399 Y-22.226 E97.99737
G1 X24.171 Y-21.907 E98.02515
G1 X25.000 Y-21.798 E98.05296
G1 X25.828 Y-21.907 E98.08074
G1 X26.601 Y-22.226 E98.10855
G1 X27.264 Y-22.735 E98.13635
G1 X27.733 Y-23.347 E98.16200
G1 X27.773 Y-23.400 E98.16421
G1 X28.067 Y-24.110 E98.18977
G1 X28.092 Y-24.172 E98.19199
G1 X28.191 Y-24.931 E98.21745
G1 X28.202 Y-24.998 E98.21971
G1 X28.101 Y-25.765 E98.24544
G1 X28.091 Y-25.830 E98.24762
G1 X27.798 Y-26.539 E98.27314
G1 X27.773 Y-26.600 E98.27533
G1 X27.304 Y-27.211 E98.30095
G1 X27.265 Y-27.263 E98.30311
G1 X26.601 Y-27.773 E98.33096
G1 X25.828 Y-28.092 E98.35877
G1 X25.000 Y-28.202 E98.38656
G1 X24.171 Y-28.092 E98.41437
G1 X23.399 Y-27.773 E98.44215
G1 X22.735 Y-27.264 E98.46998
G1 X22.266 Y-26.653 E98.49560
G1 X22.226 Y-26.600 E98.49781
G1 X21.932 Y-25.889 E98.52340
G1 X21.907 Y-25.827 E98.52562
G1 X21.809 Y-25.069 E98.55104
G0 F9000 X21.511 Y-25.098
G0 X17.499 Y-24.961
G0 X17.202 Y-25.000
G1 F1800 X17.126 Y-25.569 E98.57013
G1 X16.907 Y-26.101 E98.58927
G1 X16.556 Y-26.558 E98.60843
G1 X16.101 Y-26.907 E98.62751
G1 X15.569 Y-27.126 E98.64664
G1 X15.000 Y-27.202 E98.66574
G1 X14.430 Y-27.126 E98.68486
G1 X13.899 Y-26.907 E98.70397
G1 X13.442 Y-26.557 E98.72311
G1 X13.092 Y-26.101 E98.74223
G1 X12.873 Y-25.569 E98.76137
G1 X12.798 Y-25.000 E98.78045
G1 X12.873 Y-24.430 E98.79958
G1 X13.092 Y-23.899 E98.81868
G1 X13.442 Y-23.442 E98.83783
G1 X13.899 Y-23.092 E98.85697
G1 X14.430 Y-22.873 E98.87607
G1 X15.000 Y-22.798 E98.89520
G1 X15.569 Y-22.873 E98.91429
G1 X16.100 Y-23.092 E98.93339
G1 X16.557 Y-23.442 E98.95254
G1 X16.907 Y-23.899 E98.97168
G1 X17.126 Y-24.430 E98.99078
G1 X17.202 Y-25.000 E99.00991
G0 F9000 X17.499 Y-24.961
G0 X17.255 Y-23.700
G0 X15.672 Y-22.485
G0 X13.700 Y-22.744
G0 X12.485 Y-24.327
G0 X0.487 Y-24.878
G0 X0.189 Y-24.908
G1 F1800 X0.202 Y-24.999 E99.01297
G1 X0.037 Y-26.256 E99.05513
G1 X0.025 Y-26.347 E99.05819
G1 X-0.494 Y-27.601 E99.10333
G1 X-1.321 Y-28.678 E99.14849
G1 X-2.399 Y-29.505 E99.19368
G1 X-3.653 Y-30.024 E99.23882
G1 X-5.000 Y-30.202 E99.28401
G1 X-6.346 Y-30.024 E99.32917
G1 X-7.601 Y-29.505 E99.37434
G1 X-8.678 Y-28.678 E99.41950
G1 X-9.505 Y-27.601 E99.46467
G1 X-10.024 Y-26.346 E99.50984
G1 X-10.189 Y-25.092 E99.55190
G1 X-10.202 Y-25.001 E99.55496
G1 X-10.036 Y-23.743 E99.59716
G1 X-10.024 Y-23.652 E99.60022
G1 X-9.505 Y-22.399 E99.64533
G1 X-8.678 Y-21.321 E99.69052
G1 X-7.601 Y-20.494 E99.73568
G1 X-6.346 Y-19.975 E99.78085
G1 X-5.000 Y-19.798 E99.82600
G1 X-3.653 Y-19.975 E99.87119
G1 X-2.399 Y-20.494 E99.91633
G1 X-1.321 Y-21.321 E99.96152
G1 X-0.494 Y-22.399 E100.00671
G1 X0.025 Y-23.653 E100.05185
G1 X0.189 Y-24.908 E100.09394
G0 F9000 X0.487 Y-24.878
G0 X0.412 Y-26.452
G0 X-1.038 Y-28.961
G0 X-3.550 Y-30.412
G0 X-6.449 Y-30.412
G0 X-8.961 Y-28.961
G0 X-14.509 Y-30.149
G0 X-14.769 Y-30.000
G1 F1800 X-14.885 Y-30.200 E100.10163
G1 X-40.115 Y-30.200 E100.94079
G1 X-40.231 Y-30.000 E100.94848
G1 X-27.500 Y-7.949 E101.79535
G1 X-14.769 Y-30.000 E102.64223
G0 F9000 X-14.509 Y-30.149
G0 X-14.800 Y14.500
G0 X-14.800 Y14.800
G1 F1800 X-40.200 Y14.800 E103.48704
G1 X-40.200 Y40.200 E104.33185
G1 X-14.800 Y40.200 E105.17665
G1 X-14.800 Y14.800 E106.02146
G0 F9000 X-14.800 Y14.500
G0 X0.189 Y14.731
G0 X0.486 Y14.771
G1 F1800 X-0.202 Y20.000 E106.19688
G1 X0.486 Y25.228 E106.37226
G1 X2.504 Y30.101 E106.54768
G1 X5.714 Y34.285 E106.72308
G1 X9.899 Y37.495 E106.89851
G1 X14.771 Y39.513 E107.07390
G1 X20.000 Y40.202 E107.24932
G1 X25.228 Y39.513 E107.42471
G1 X30.101 Y37.495 E107.60013
G1 X34.285 Y34.285 E107.77553
G1 X37.495 Y30.101 E107.95093
G1 X39.513 Y25.228 E108.12635
G1 X40.202 Y20.000 E108.30174
G1 X39.513 Y14.771 E108.47716
G1 X37.495 Y9.899 E108.65256
G1 X34.285 Y5.714 E108.82798
G1 X30.101 Y2.504 E109.00338
G1 X25.228 Y0.486 E109.17880
G1 X20.000 Y-0.202 E109.35419
G1 X14.771 Y0.486 E109.52960
G1 X9.899 Y2.504 E109.70500
G1 X5.714 Y5.714 E109.88042
G1 X2.504 Y9.899 E110.05584
G1 X0.486 Y14.771 E110.23124
G0 F9000 X0.189 Y14.731
G0 X-0.604 Y19.999
G0 X0.099 Y25.333
G0 X2.157 Y30.301
G0 X5.431 Y34.568
G0 X9.699 Y37.842
G0 X14.668 Y39.901
G0 X20.000 Y40.603
G0 X25.331 Y39.901
G0 X30.301 Y37.842
G0 X49.500 Y49.590
G0 X49.800 Y49.800
G1 F1800 X-49.800 Y49.800 E113.54395
G1 X-49.800 Y-49.800 E116.85666
G1 X49.800 Y-49.800 E120.16937
G1 X49.800 Y49.800 E123.48208
G0 F9000 X48.977 Y49.259
;TYPE:SKIN
G1 F1800 X34.509 Y34.792 E124.16258
G0 F9000 X34.791 Y34.508
G1 F1800 X49.259 Y48.977 E124.84314
G0 F9000 X49.259 Y48.411
G1 F1800 X35.037 Y34.188 E125.51212
G0 F9000 X35.283 Y33.869
G1 F1800 X49.259 Y47.845 E126.16951
G0 F9000 X49.259 Y47.279
G1 F1800 X35.528 Y33.548 E126.81537
G0 F9000 X35.773 Y33.228
G1 F1800 X49.259 Y46.714 E127.44971
G0 F9000 X49.259 Y46.148
G1 F1800 X36.019 Y32.908 E128.07248
G0 F9000 X36.264 Y32.587
G1 F1800 X49.259 Y45.582 E128.68373
G0 F9000 X49.259 Y45.017
G1 F1800 X36.510 Y32.268 E129.28340
G0 F9000 X36.756 Y31.947
G1 F1800 X49.259 Y44.451 E129.87153
G0 F9000 X49.259 Y43.885
G1 F1800 X37.001 Y31.627 E130.44810
G0 F9000 X37.246 Y31.307
G1 F1800 X49.259 Y43.320 E131.01316
G0 F9000 X49.259 Y42.754
G1 F1800 X37.492 Y30.987 E131.56664
G0 F9000 X37.738 Y30.667
G1 F1800 X49.259 Y42.188 E132.10856
G0 F9000 X49.259 Y41.623
G1 F1800 X37.977 Y30.341 E132.63923
G0 F9000 X38.144 Y29.941
G1 F1800 X49.259 Y41.057 E133.16207
G0 F9000 X49.259 Y40.491
G1 F1800 X38.309 Y29.541 E133.67712
G0 F9000 X38.475 Y29.141
G1 F1800 X49.259 Y39.926 E134.18439
G0 F9000 X49.259 Y39.360
G1 F1800 X38.641 Y28.741 E134.68385
G0 F9000 X38.806 Y28.341
G1 F1800 X49.259 Y38.794 E135.17553
G0 F9000 X49.259 Y38.229
G1 F1800 X38.972 Y27.942 E135.65940
G0 F9000 X39.138 Y27.541
G1 F1800 X49.259 Y37.663 E136.13548
G0 F9000 X49.259 Y37.097
G1 F1800 X39.304 Y27.142 E136.60373
G0 F9000 X39.469 Y26.742
G1 F1800 X49.259 Y36.531 E137.06420
G0 F9000 X49.259 Y35.966
G1 F1800 X39.635 Y26.341 E137.51691
G0 F9000 X39.801 Y25.942
G1 F1800 X49.259 Y35.400 E137.96178
G0 F9000 X49.259 Y34.834
G1 F1800 X39.967 Y25.542 E138.39885
G0 F9000 X37.842 Y30.301
G0 X34.189 Y35.037
G1 F1800 X48.411 Y49.259 E139.06781
G0 F9000 X47.845 Y49.259
G1 F1800 X33.869 Y35.283 E139.72520
G0 F9000 X33.549 Y35.529
G1 F1800 X47.279 Y49.259 E140.37102
G0 F9000 X46.714 Y49.259
G1 F1800 X33.229 Y35.774 E141.00531
G0 F9000 X32.909 Y36.020
G1 F1800 X46.148 Y49.259 E141.62803
G0 F9000 X45.582 Y49.259
G1 F1800 X32.589 Y36.266 E142.23918
G0 F9000 X32.268 Y36.511
G1 F1800 X45.017 Y49.259 E142.83883
G0 F9000 X44.451 Y49.259
G1 F1800 X31.948 Y36.756 E143.42694
G0 F9000 X31.628 Y37.002
G1 F1800 X43.885 Y49.259 E144.00347
G0 F9000 X43.320 Y49.259
G1 F1800 X31.308 Y37.248 E144.56845
G0 F9000 X30.988 Y37.493
G1 F1800 X42.754 Y49.259 E145.12189
G0 F9000 X42.188 Y49.259
G1 F1800 X30.668 Y37.739 E145.66375
G0 F9000 X30.342 Y37.979
G1 F1800 X41.623 Y49.259 E146.19435
G0 F9000 X41.057 Y49.259
G1 F1800 X29.942 Y38.144 E146.71717
G0 F9000 X29.542 Y38.311
G1 F1800 X40.491 Y49.259 E147.23215
G0 F9000 X39.926 Y49.259
G1 F1800 X29.142 Y38.476 E147.73938
G0 F9000 X28.742 Y38.641
G1 F1800 X39.360 Y49.259 E148.23881
G0 F9000 X38.794 Y49.259
G1 F1800 X28.342 Y38.808 E148.73042
G0 F9000 X27.942 Y38.973
G1 F1800 X38.229 Y49.259 E149.21427
G0 F9000 X37.663 Y49.259
G1 F1800 X27.542 Y39.139 E149.69030
G0 F9000 X27.143 Y39.305
G1 F1800 X37.097 Y49.259 E150.15851
G0 F9000 X36.531 Y49.259
G1 F1800 X26.742 Y39.470 E150.61895
G0 F9000 X26.342 Y39.636
G1 F1800 X35.966 Y49.259 E151.07161
G0 F9000 X35.400 Y49.259
G1 F1800 X25.943 Y39.802 E151.51644
G0 F9000 X25.542 Y39.967
G1 F1800 X34.834 Y49.259 E151.95351
G0 F9000 X34.269 Y49.259
G1 F1800 X25.086 Y40.076 E152.38545
G0 F9000 X24.586 Y40.142
G1 F1800 X33.703 Y49.259 E152.81428
G0 F9000 X33.137 Y49.259
G1 F1800 X24.086 Y40.208 E153.24002
G0 F9000 X23.586 Y40.274
G1 F1800 X32.572 Y49.259 E153.66267
G0 F9000 X32.006 Y49.259
G1 F1800 X23.087 Y40.340 E154.08219
G0 F9000 X22.587 Y40.406
G1 F1800 X31.440 Y49.259 E154.49861
G0 F9000 X30.875 Y49.259
G1 F1800 X22.087 Y40.471 E154.91197
G0 F9000 X21.587 Y40.537
G1 F1800 X30.309 Y49.259 E155.32222
G0 F9000 X29.743 Y49.259
G1 F1800 X21.087 Y40.603 E155.72937
G0 F9000 X20.587 Y40.669
G1 F1800 X29.178 Y49.259 E156.13345
G0 F9000 X28.612 Y49.259
G1 F1800 X20.087 Y40.735 E156.53441
G0 F9000 X19.462 Y40.675
G1 F1800 X28.046 Y49.259 E156.93818
G0 F9000 X27.480 Y49.259
G1 F1800 X18.811 Y40.590 E157.34594
G0 F9000 X18.159 Y40.504
G1 F1800 X26.915 Y49.259 E157.75777
G0 F9000 X26.349 Y49.259
G1 F1800 X17.507 Y40.418 E158.17365
G0 F9000 X16.856 Y40.332
G1 F1800 X25.783 Y49.259 E158.59355
G0 F9000 X25.218 Y49.259
G1 F1800 X16.205 Y40.247 E159.01747
G0 F9000 X15.553 Y40.160
G1 F1800 X24.652 Y49.259 E159.44546
G0 F9000 X24.086 Y49.259
G1 F1800 X14.902 Y40.075 E159.87744
G0 F9000 X15.035 Y49.259
G1 F1800 X-14.259 Y19.964 E161.25537
G0 F9000 X-14.259 Y19.398
G1 F1800 X15.601 Y49.259 E162.65991
G0 F9000 X16.167 Y49.259
G1 F1800 X-14.259 Y18.833 E164.09106
G0 F9000 X-14.259 Y18.267
G1 F1800 X16.732 Y49.259 E165.54881
G0 F9000 X17.298 Y49.259
G1 F1800 X-14.259 Y17.701 E167.03317
G0 F9000 X-14.259 Y17.136
G1 F1800 X17.864 Y49.259 E168.54414
G0 F9000 X18.430 Y49.259
G1 F1800 X-14.259 Y16.570 E170.08173
G0 F9000 X-14.259 Y16.004
G1 F1800 X18.995 Y49.259 E171.64592
G0 F9000 X19.561 Y49.259
G1 F1800 X-14.259 Y15.438 E173.23673
G0 F9000 X-14.259 Y14.873
G1 F1800 X4.644 Y33.777 E174.12590
G0 F9000 X6.219 Y35.352
G1 F1800 X20.127 Y49.259 E174.78006
