;Generated with Cura_SteamEngine 15.01
; Default start code
; Set bed temperature
M140 S60
; Activate all used extruder
M104 T0 S190
G28 ; Home extruder
G1 Z15 F5000
M107 ; Turn off fan
G90 ; Absolute positioning
M82 ; Extruder in absolute mode
G92 E0 ; Reset extruder position
; Wait for hot bed to reach temperature
M190 S60
; Wait for all used extruders to reach temperature
M109 T0 S190
;Layer count: 5
;LAYER:0
M107
G0 F9000 X54.800 Y54.800 Z0.200
;TYPE:SKIRT
G1 F1800 X-54.800 Y54.800 E3.64531
G1 X-54.800 Y-54.800 E7.29062
G1 X54.800 Y-54.800 E10.93593
G1 X54.800 Y54.800 E14.58124
G0 F9000 X54.400 Y54.400
G1 F1800 X-54.400 Y54.400 E18.19995
G1 X-54.400 Y-54.400 E21.81865
G1 X54.400 Y-54.400 E25.43735
G1 X54.400 Y54.400 E29.05605
G0 F9000 X54.000 Y54.000
G1 F1800 X-54.000 Y54.000 E32.64815
G1 X-54.000 Y-54.000 E36.24024
G1 X54.000 Y-54.000 E39.83234
G1 X54.000 Y54.000 E43.42443
G0 F9000 X53.600 Y53.600
G1 F1800 X-53.600 Y53.600 E46.98992
G1 X-53.600 Y-53.600 E50.55541
G1 X53.600 Y-53.600 E54.12089
G1 X53.600 Y53.600 E57.68638
G0 F9000 X53.200 Y53.200
G1 F1800 X-53.200 Y53.200 E61.22526
G1 X-53.200 Y-53.200 E64.76413
G1 X53.200 Y-53.200 E68.30301
G1 X53.200 Y53.200 E71.84189
G1 F3000 E66.84189
G1 Z0.700
G0 F9000 X49.400 Y49.400
;TYPE:WALL-INNER
G1 Z0.200
G1 F3000 E71.84189
G1 F1800 X-49.400 Y49.400 E75.12799
G1 X-49.400 Y-49.400 E78.41409
G1 X49.400 Y-49.400 E81.70020
G1 X49.400 Y49.400 E84.98630
G0 F9000 X45.600 Y45.600
G1 F1800 X45.600 Y-45.600 E88.01962
G1 X-45.600 Y-45.600 E91.05295
G1 X-45.600 Y45.600 E94.08627
G1 X45.600 Y45.600 E97.11959
G0 F9000 X45.200 Y45.200
;TYPE:WALL-OUTER
G1 F1800 X45.200 Y-45.200 E100.12631
G1 X-45.200 Y-45.200 E103.13303
G1 X-45.200 Y45.200 E106.13974
G1 X45.200 Y45.200 E109.14646
G0 F9000 X45.200 Y45.500
G0 X49.500 Y49.590
G0 X49.800 Y49.800
G1 F1800 X-49.800 Y49.800 E112.45917
G1 X-49.800 Y-49.800 E115.77188
G1 X49.800 Y-49.800 E119.08459
G1 X49.800 Y49.800 E122.39730
G0 F9000 X48.977 Y49.259
;TYPE:SKIN
G1 F1800 X45.457 Y45.739 E122.56287
G0 F9000 X45.739 Y45.457
G1 F1800 X49.259 Y48.977 E122.72844
G0 F9000 X49.259 Y48.411
G1 F1800 X45.739 Y44.891 E122.89401
G0 F9000 X45.739 Y44.325
G1 F1800 X49.259 Y47.845 E123.05958
G0 F9000 X49.259 Y47.279
G1 F1800 X45.739 Y43.760 E123.22512
G0 F9000 X45.739 Y43.194
G1 F1800 X49.259 Y46.714 E123.39069
G0 F9000 X49.259 Y46.148
G1 F1800 X45.739 Y42.628 E123.55626
G0 F9000 X45.739 Y42.062
G1 F1800 X49.259 Y45.582 E123.72183
G0 F9000 X49.259 Y45.017
G1 F1800 X45.739 Y41.497 E123.88740
G0 F9000 X45.739 Y40.931
G1 F1800 X49.259 Y44.451 E124.05297
G0 F9000 X49.259 Y43.885
G1 F1800 X45.739 Y40.365 E124.21854
G0 F9000 X45.739 Y39.800
G1 F1800 X49.259 Y43.320 E124.38411
G0 F9000 X49.259 Y42.754
G1 F1800 X45.739 Y39.234 E124.54968
G0 F9000 X45.739 Y38.668
G1 F1800 X49.259 Y42.188 E124.71525
G0 F9000 X49.259 Y41.623
G1 F1800 X45.739 Y38.103 E124.88082
G0 F9000 X45.739 Y37.537
G1 F1800 X49.259 Y41.057 E125.04639
G0 F9000 X49.259 Y40.491
G1 F1800 X45.739 Y36.971 E125.21196
G0 F9000 X45.739 Y36.406
G1 F1800 X49.259 Y39.926 E125.37753
G0 F9000 X49.259 Y39.360
G1 F1800 X45.739 Y35.840 E125.54310
G0 F9000 X45.739 Y35.274
G1 F1800 X49.259 Y38.794 E125.70867
G0 F9000 X49.259 Y38.229
G1 F1800 X45.739 Y34.709 E125.87424
G0 F9000 X45.739 Y34.143
G1 F1800 X49.259 Y37.663 E126.03981
G0 F9000 X49.259 Y37.097
G1 F1800 X45.739 Y33.577 E126.20538
G0 F9000 X45.739 Y33.011
G1 F1800 X49.259 Y36.531 E126.37095
G0 F9000 X49.259 Y35.966
G1 F1800 X45.739 Y32.446 E126.53652
G0 F9000 X45.739 Y31.880
G1 F1800 X49.259 Y35.400 E126.70209
G0 F9000 X49.259 Y34.834
G1 F1800 X45.739 Y31.314 E126.86766
G0 F9000 X45.739 Y30.749
G1 F1800 X49.259 Y34.269 E127.03323
G0 F9000 X49.259 Y33.703
G1 F1800 X45.739 Y30.183 E127.19880
G0 F9000 X45.739 Y29.617
G1 F1800 X49.259 Y33.137 E127.36437
G0 F9000 X49.259 Y32.572
G1 F1800 X45.739 Y29.052 E127.52994
G0 F9000 X45.739 Y28.486
G1 F1800 X49.259 Y32.006 E127.69551
G0 F9000 X49.259 Y31.440
G1 F1800 X45.739 Y27.920 E127.86108
G0 F9000 X45.739 Y27.355
G1 F1800 X49.259 Y30.875 E128.02665
G0 F9000 X49.259 Y30.309
G1 F1800 X45.739 Y26.789 E128.19222
G0 F9000 X45.739 Y26.223
G1 F1800 X49.259 Y29.743 E128.35779
G0 F9000 X49.259 Y29.178
G1 F1800 X45.739 Y25.658 E128.52336
G0 F9000 X45.739 Y25.092
G1 F1800 X49.259 Y28.612 E128.68893
G0 F9000 X49.259 Y28.046
G1 F1800 X45.739 Y24.526 E128.85450
G0 F9000 X45.739 Y23.961
G1 F1800 X49.259 Y27.480 E129.02005
G0 F9000 X49.259 Y26.915
G1 F1800 X45.739 Y23.395 E129.18562
G0 F9000 X45.739 Y22.829
G1 F1800 X49.259 Y26.349 E129.35119
G0 F9000 X49.259 Y25.783
G1 F1800 X45.739 Y22.263 E129.51676
G0 F9000 X45.739 Y21.698
G1 F1800 X49.259 Y25.218 E129.68233
G0 F9000 X49.259 Y24.652
G1 F1800 X45.739 Y21.132 E129.84790
G0 F9000 X45.739 Y20.566
G1 F1800 X49.259 Y24.086 E130.01347
G0 F9000 X49.259 Y23.521
G1 F1800 X45.739 Y20.001 E130.17904
G0 F9000 X45.739 Y19.435
G1 F1800 X49.259 Y22.955 E130.34461
G0 F9000 X49.259 Y22.389
G1 F1800 X45.739 Y18.869 E130.51018
G0 F9000 X45.739 Y18.304
G1 F1800 X49.259 Y21.824 E130.67575
G0 F9000 X49.259 Y21.258
G1 F1800 X45.739 Y17.738 E130.84132
G0 F9000 X45.739 Y17.172
G1 F1800 X49.259 Y20.692 E131.00689
G0 F9000 X49.259 Y20.127
G1 F1800 X45.739 Y16.607 E131.17246
G0 F9000 X45.739 Y16.041
G1 F1800 X49.259 Y19.561 E131.33803
G0 F9000 X49.259 Y18.995
G1 F1800 X45.739 Y15.475 E131.50360
G0 F9000 X45.739 Y14.910
G1 F1800 X49.259 Y18.430 E131.66917
G0 F9000 X49.259 Y17.864
G1 F1800 X45.739 Y14.344 E131.83474
G0 F9000 X45.739 Y13.778
G1 F1800 X49.259 Y17.298 E132.00031
G0 F9000 X49.259 Y16.732
G1 F1800 X45.739 Y13.212 E132.16588
G0 F9000 X45.739 Y12.647
G1 F1800 X49.259 Y16.167 E132.33145
G0 F9000 X49.259 Y15.601
G1 F1800 X45.739 Y12.081 E132.49702
G0 F9000 X45.739 Y11.515
G1 F1800 X49.259 Y15.035 E132.66259
G0 F9000 X49.259 Y14.470
G1 F1800 X45.739 Y10.950 E132.82816
G0 F9000 X45.739 Y10.384
G1 F1800 X49.259 Y13.904 E132.99373
G0 F9000 X49.259 Y13.338
G1 F1800 X45.739 Y9.818 E133.15930
G0 F9000 X45.739 Y9.253
G1 F1800 X49.259 Y12.773 E133.32487
G0 F9000 X49.259 Y12.207
G1 F1800 X45.739 Y8.687 E133.49044
G0 F9000 X45.739 Y8.121
G1 F1800 X49.259 Y11.641 E133.65601
G0 F9000 X49.259 Y11.076
G1 F1800 X45.739 Y7.556 E133.82158
G0 F9000 X45.739 Y6.990
G1 F1800 X49.259 Y10.510 E133.98715
G0 F9000 X49.259 Y9.944
G1 F1800 X45.739 Y6.424 E134.15272
G0 F9000 X45.739 Y5.859
G1 F1800 X49.259 Y9.379 E134.31829
G0 F9000 X49.259 Y8.813
G1 F1800 X45.739 Y5.293 E134.48386
G0 F9000 X45.739 Y4.727
G1 F1800 X49.259 Y8.247 E134.64943
G0 F9000 X49.259 Y7.682
G1 F1800 X45.739 Y4.162 E134.81500
G0 F9000 X45.739 Y3.596
G1 F1800 X49.259 Y7.116 E134.98057
G0 F9000 X49.259 Y6.550
G1 F1800 X45.739 Y3.030 E135.14614
G0 F9000 X45.739 Y2.464
G1 F1800 X49.259 Y5.984 E135.31171
G0 F9000 X49.259 Y5.419
G1 F1800 X45.739 Y1.899 E135.47728
G0 F9000 X45.739 Y1.333
G1 F1800 X49.259 Y4.853 E135.64285
G0 F9000 X49.259 Y4.287
G1 F1800 X45.739 Y0.767 E135.80842
G0 F9000 X45.739 Y0.202
G1 F1800 X49.259 Y3.722 E135.97399
G0 F9000 X49.259 Y3.156
G1 F1800 X45.739 Y-0.363 E136.13954
G0 F9000 X45.739 Y-0.929
G1 F1800 X49.259 Y2.590 E136.30508
G0 F9000 X49.259 Y2.025
G1 F1800 X45.739 Y-1.494 E136.47063
G0 F9000 X45.739 Y-2.060
G1 F1800 X49.259 Y1.459 E136.63618
G0 F9000 X49.259 Y0.893
G1 F1800 X45.739 Y-2.626 E136.80172
G0 F9000 X45.739 Y-3.191
G1 F1800 X49.259 Y0.328 E136.96727
G0 F9000 X49.259 Y-0.237
G1 F1800 X45.739 Y-3.757 E137.13284
G0 F9000 X45.739 Y-4.323
G1 F1800 X49.259 Y-0.803 E137.29841
G0 F9000 X49.259 Y-1.368
G1 F1800 X45.739 Y-4.888 E137.46398
G0 F9000 X45.739 Y-5.454
G1 F1800 X49.259 Y-1.934 E137.62955
G0 F9000 X49.259 Y-2.500
G1 F1800 X45.739 Y-6.020 E137.79512
G0 F9000 X45.739 Y-6.585
G1 F1800 X49.259 Y-3.066 E137.96067
G0 F9000 X49.259 Y-3.631
G1 F1800 X45.739 Y-7.151 E138.12624
G0 F9000 X45.739 Y-7.717
G1 F1800 X49.259 Y-4.197 E138.29181
G0 F9000 X49.259 Y-4.763
G1 F1800 X45.739 Y-8.283 E138.45738
G0 F9000 X45.739 Y-8.848
G1 F1800 X49.259 Y-5.328 E138.62295
G0 F9000 X49.259 Y-5.894
G1 F1800 X45.739 Y-9.414 E138.78852
G0 F9000 X45.739 Y-9.980
G1 F1800 X49.259 Y-6.460 E138.95409
G0 F9000 X49.259 Y-7.025
G1 F1800 X45.739 Y-10.545 E139.11966
G0 F9000 X45.739 Y-11.111
G1 F1800 X49.259 Y-7.591 E139.28523
G0 F9000 X49.259 Y-8.157
G1 F1800 X45.739 Y-11.677 E139.45080
G0 F9000 X45.739 Y-12.242
G1 F1800 X49.259 Y-8.722 E139.61637
G0 F9000 X49.259 Y-9.288
G1 F1800 X45.739 Y-12.808 E139.78194
G0 F9000 X45.739 Y-13.374
G1 F1800 X49.259 Y-9.854 E139.94751
G0 F9000 X49.259 Y-10.419
G1 F1800 X45.739 Y-13.939 E140.11308
G0 F9000 X45.739 Y-14.505
G1 F1800 X49.259 Y-10.985 E140.27865
G0 F9000 X49.259 Y-11.551
G1 F1800 X45.739 Y-15.071 E140.44422
G0 F9000 X45.739 Y-15.636
G1 F1800 X49.259 Y-12.116 E140.60979
G0 F9000 X49.259 Y-12.682
G1 F1800 X45.739 Y-16.202 E140.77536
G0 F9000 X45.739 Y-16.768
G1 F1800 X49.259 Y-13.248 E140.94093
G0 F9000 X49.259 Y-13.814
G1 F1800 X45.739 Y-17.334 E141.10650
G0 F9000 X45.739 Y-17.899
G1 F1800 X49.259 Y-14.379 E141.27207
G0 F9000 X49.259 Y-14.945
G1 F1800 X45.739 Y-18.465 E141.43764
G0 F9000 X45.739 Y-19.031
G1 F1800 X49.259 Y-15.511 E141.60321
G0 F9000 X49.259 Y-16.076
G1 F1800 X45.739 Y-19.596 E141.76878
G0 F9000 X45.739 Y-20.162
G1 F1800 X49.259 Y-16.642 E141.93435
G0 F9000 X49.259 Y-17.208
G1 F1800 X45.739 Y-20.728 E142.09992
G0 F9000 X45.739 Y-21.293
G1 F1800 X49.259 Y-17.773 E142.26549
G0 F9000 X49.259 Y-18.339
G1 F1800 X45.739 Y-21.859 E142.43106
G0 F9000 X45.739 Y-22.425
G1 F1800 X49.259 Y-18.905 E142.59663
G0 F9000 X49.259 Y-19.470
G1 F1800 X45.739 Y-22.990 E142.76220
G0 F9000 X45.739 Y-23.556
G1 F1800 X49.259 Y-20.036 E142.92777
G0 F9000 X49.259 Y-20.602
G1 F1800 X45.739 Y-24.122 E143.09334
G0 F9000 X45.739 Y-24.687
G1 F1800 X49.259 Y-21.167 E143.25891
G0 F9000 X49.259 Y-21.733
G1 F1800 X45.739 Y-25.253 E143.42448
G0 F9000 X45.739 Y-25.819
G1 F1800 X49.259 Y-22.299 E143.59005
G0 F9000 X49.259 Y-22.865
G1 F1800 X45.739 Y-26.384 E143.75559
G0 F9000 X45.739 Y-26.950
G1 F1800 X49.259 Y-23.430 E143.92116
G0 F9000 X49.259 Y-23.996
G1 F1800 X45.739 Y-27.516 E144.08673
G0 F9000 X45.739 Y-28.082
G1 F1800 X49.259 Y-24.562 E144.25230
G0 F9000 X49.259 Y-25.127
G1 F1800 X45.739 Y-28.647 E144.41787
G0 F9000 X45.739 Y-29.213
G1 F1800 X49.259 Y-25.693 E144.58344
G0 F9000 X49.259 Y-26.259
G1 F1800 X45.739 Y-29.779 E144.74901
G0 F9000 X45.739 Y-30.344
G1 F1800 X49.259 Y-26.824 E144.91458
G0 F9000 X49.259 Y-27.390
G1 F1800 X45.739 Y-30.910 E145.08015
G0 F9000 X45.739 Y-31.476
G1 F1800 X49.259 Y-27.956 E145.24572
G0 F9000 X49.259 Y-28.521
G1 F1800 X45.739 Y-32.041 E145.41129
G0 F9000 X45.739 Y-32.607
G1 F1800 X49.259 Y-29.087 E145.57686
G0 F9000 X49.259 Y-29.653
G1 F1800 X45.739 Y-33.173 E145.74243
G0 F9000 X45.739 Y-33.738
G1 F1800 X49.259 Y-30.218 E145.90800
G0 F9000 X49.259 Y-30.784
G1 F1800 X45.739 Y-34.304 E146.07357
G0 F9000 X45.739 Y-34.870
G1 F1800 X49.259 Y-31.350 E146.23914
G0 F9000 X49.259 Y-31.915
G1 F1800 X45.739 Y-35.435 E146.40471
G0 F9000 X45.739 Y-36.001
G1 F1800 X49.259 Y-32.481 E146.57028
G0 F9000 X49.259 Y-33.047
G1 F1800 X45.739 Y-36.567 E146.73585
G0 F9000 X45.739 Y-37.133
G1 F1800 X49.259 Y-33.613 E146.90142
G0 F9000 X49.259 Y-34.178
G1 F1800 X45.739 Y-37.698 E147.06699
G0 F9000 X45.739 Y-38.264
G1 F1800 X49.259 Y-34.744 E147.23256
G0 F9000 X49.259 Y-35.310
G1 F1800 X45.739 Y-38.830 E147.39813
G0 F9000 X45.739 Y-39.395
G1 F1800 X49.259 Y-35.875 E147.56370
G0 F9000 X49.259 Y-36.441
G1 F1800 X45.739 Y-39.961 E147.72927
G0 F9000 X45.739 Y-40.527
G1 F1800 X49.259 Y-37.007 E147.89484
G0 F9000 X49.259 Y-37.572
G1 F1800 X45.739 Y-41.092 E148.06041
G0 F9000 X45.739 Y-41.658
G1 F1800 X49.259 Y-38.138 E148.22598
G0 F9000 X49.259 Y-38.704
G1 F1800 X45.739 Y-42.224 E148.39155
G0 F9000 X45.739 Y-42.789
G1 F1800 X49.259 Y-39.269 E148.55712
G0 F9000 X49.259 Y-39.835
G1 F1800 X45.739 Y-43.355 E148.72269
G0 F9000 X45.739 Y-43.921
G1 F1800 X49.259 Y-40.401 E148.88826
G0 F9000 X49.259 Y-40.966
G1 F1800 X45.739 Y-44.486 E149.05383
G0 F9000 X45.739 Y-45.052
G1 F1800 X49.259 Y-41.532 E149.21940
G0 F9000 X49.259 Y-42.098
G1 F1800 X45.739 Y-45.618 E149.38497
G0 F9000 X45.618 Y-45.739
G1 F1800 X42.098 Y-49.259 E149.55054
G0 F9000 X42.663 Y-49.259
G1 F1800 X49.259 Y-42.663 E149.86080
G0 F9000 X49.259 Y-43.229
G1 F1800 X43.229 Y-49.259 E150.14443
G0 F9000 X43.795 Y-49.259
G1 F1800 X49.259 Y-43.795 E150.40144
G0 F9000 X49.259 Y-44.361
G1 F1800 X44.361 Y-49.259 E150.63183
G0 F9000 X44.926 Y-49.259
G1 F1800 X49.259 Y-44.926 E150.83564
G0 F9000 X49.259 Y-45.492
G1 F1800 X45.492 Y-49.259 E151.01283
G0 F9000 X46.058 Y-49.259
G1 F1800 X49.259 Y-46.058 E151.16339
G0 F9000 X49.259 Y-46.623
G1 F1800 X46.623 Y-49.259 E151.28738
G0 F9000 X47.189 Y-49.259
G1 F1800 X49.259 Y-47.189 E151.38475
G0 F9000 X49.259 Y-47.755
G1 F1800 X47.755 Y-49.259 E151.45549
G0 F9000 X48.320 Y-49.259
G1 F1800 X49.259 Y-48.320 E151.49966
G0 F9000 X49.259 Y-48.886
G1 F1800 X48.886 Y-49.259 E151.51720
G0 F9000 X45.052 Y-45.739
G1 F1800 X41.532 Y-49.259 E151.68277
G0 F9000 X40.966 Y-49.259
G1 F1800 X44.486 Y-45.739 E151.84834
G0 F9000 X43.921 Y-45.739
G1 F1800 X40.401 Y-49.259 E152.01391
G0 F9000 X39.835 Y-49.259
G1 F1800 X43.355 Y-45.739 E152.17948
G0 F9000 X42.789 Y-45.739
G1 F1800 X39.269 Y-49.259 E152.34505
G0 F9000 X38.704 Y-49.259
G1 F1800 X42.224 Y-45.739 E152.51062
G0 F9000 X41.658 Y-45.739
G1 F1800 X38.138 Y-49.259 E152.67619
G0 F9000 X37.572 Y-49.259
G1 F1800 X41.092 Y-45.739 E152.84176
G0 F9000 X40.527 Y-45.739
G1 F1800 X37.007 Y-49.259 E153.00733
G0 F9000 X36.441 Y-49.259
G1 F1800 X39.961 Y-45.739 E153.17290
G0 F9000 X39.395 Y-45.739
G1 F1800 X35.875 Y-49.259 E153.33847
G0 F9000 X35.310 Y-49.259
G1 F1800 X38.830 Y-45.739 E153.50404
G0 F9000 X38.264 Y-45.739
G1 F1800 X34.744 Y-49.259 E153.66961
G0 F9000 X34.178 Y-49.259
G1 F1800 X37.698 Y-45.739 E153.83518
G0 F9000 X37.133 Y-45.739
G1 F1800 X33.613 Y-49.259 E154.00075
G0 F9000 X33.047 Y-49.259
G1 F1800 X36.567 Y-45.739 E154.16632
G0 F9000 X36.001 Y-45.739
G1 F1800 X32.481 Y-49.259 E154.33189
G0 F9000 X31.915 Y-49.259
G1 F1800 X35.435 Y-45.739 E154.49746
G0 F9000 X34.870 Y-45.739
G1 F1800 X31.350 Y-49.259 E154.66303
G0 F9000 X30.784 Y-49.259
G1 F1800 X34.304 Y-45.739 E154.82860
G0 F9000 X33.738 Y-45.739
G1 F1800 X30.218 Y-49.259 E154.99417
G0 F9000 X29.653 Y-49.259
G1 F1800 X33.173 Y-45.739 E155.15974
G0 F9000 X32.607 Y-45.739
G1 F1800 X29.087 Y-49.259 E155.32531
G0 F9000 X28.521 Y-49.259
G1 F1800 X32.041 Y-45.739 E155.49088
G0 F9000 X31.476 Y-45.739
G1 F1800 X27.956 Y-49.259 E155.65645
G0 F9000 X27.390 Y-49.259
G1 F1800 X30.910 Y-45.739 E155.82202
G0 F9000 X30.344 Y-45.739
G1 F1800 X26.824 Y-49.259 E155.98759
G0 F9000 X26.259 Y-49.259
G1 F1800 X29.779 Y-45.739 E156.15316
G0 F9000 X29.213 Y-45.739
G1 F1800 X25.693 Y-49.259 E156.31873
G0 F9000 X25.127 Y-49.259
G1 F1800 X28.647 Y-45.739 E156.48430
G0 F9000 X28.082 Y-45.739
G1 F1800 X24.562 Y-49.259 E156.64987
G0 F9000 X23.996 Y-49.259
G1 F1800 X27.516 Y-45.739 E156.81544
G0 F9000 X26.950 Y-45.739
G1 F1800 X23.430 Y-49.259 E156.98101
G0 F9000 X22.865 Y-49.259
G1 F1800 X26.384 Y-45.739 E157.14656
G0 F9000 X25.819 Y-45.739
G1 F1800 X22.299 Y-49.259 E157.31213
G0 F9000 X21.733 Y-49.259
G1 F1800 X25.253 Y-45.739 E157.47770
G0 F9000 X24.687 Y-45.739
G1 F1800 X21.167 Y-49.259 E157.64327
G0 F9000 X20.602 Y-49.259
G1 F1800 X24.122 Y-45.739 E157.80884
G0 F9000 X23.556 Y-45.739
G1 F1800 X20.036 Y-49.259 E157.97441
G0 F9000 X19.470 Y-49.259
G1 F1800 X22.990 Y-45.739 E158.13998
G0 F9000 X22.425 Y-45.739
G1 F1800 X18.905 Y-49.259 E158.30555
G0 F9000 X18.339 Y-49.259
G1 F1800 X21.859 Y-45.739 E158.47112
G0 F9000 X21.293 Y-45.739
