;Generated with Cura_SteamEngine 15.01
; Default start code
; Set bed temperature
M140 S60
; Activate all used extruder
M104 T0 S190
G28 ; Home extruder
G1 Z15 F5000
M107 ; Turn off fan
G90 ; Absolute positioning
M82 ; Extruder in absolute mode
G92 E0 ; Reset extruder position
; Wait for hot bed to reach temperature
M190 S60
; Wait for all used extruders to reach temperature
M109 T0 S190
;Layer count: 25
;LAYER:0
M107
G0 F9000 X19.799 Y19.799 Z0.200
;TYPE:SKIRT
G1 F1800 X-19.799 Y19.799 E1.31703
G1 X-19.799 Y-19.799 E2.63407
G1 X19.799 Y-19.799 E3.95110
G1 X19.799 Y19.799 E5.26814
G0 F9000 X19.399 Y19.399
G1 F1800 X-19.399 Y19.399 E6.55857
G1 X-19.399 Y-19.399 E7.84899
G1 X19.399 Y-19.399 E9.13942
G1 X19.399 Y19.399 E10.42985
G0 F9000 X18.999 Y18.999
G1 F1800 X-18.999 Y18.999 E11.69366
G1 X-18.999 Y-18.999 E12.95748
G1 X18.999 Y-18.999 E14.22130
G1 X18.999 Y18.999 E15.48512
G0 F9000 X18.599 Y18.599
G1 F1800 X-18.599 Y18.599 E16.72233
G1 X-18.599 Y-18.599 E17.95954
G1 X18.599 Y-18.599 E19.19675
G1 X18.599 Y18.599 E20.43396
G0 F9000 X18.199 Y18.199
G1 F1800 X-18.199 Y18.199 E21.64457
G1 X-18.199 Y-18.199 E22.85517
G1 X18.199 Y-18.199 E24.06577
G1 X18.199 Y18.199 E25.27637
G1 F3000 E20.27637
G1 Z0.700
G0 F9000 X14.799 Y14.799
;TYPE:WALL-OUTER
G1 Z0.200
G1 F3000 E25.27637
G1 F1800 X-14.799 Y14.799 E26.26081
G1 X-14.799 Y-14.799 E27.24524
G1 X14.799 Y-14.799 E28.22967
G1 X14.799 Y14.799 E29.21411
G0 F9000 X14.199 Y14.449
G1 F1800 X14.199 Y0.299 E29.68474
G1 X0.299 Y0.299 E30.14705
G1 X0.299 Y14.449 E30.61768
G1 X14.199 Y14.449 E31.08000
G0 F9000 X14.499 Y14.449
G0 X14.540 Y-0.042
G0 X-0.042 Y-0.042
G0 X0.000 Y14.449
G0 X-0.300 Y14.449
G1 F1800 X-0.300 Y0.299 E31.55063
G1 X-14.201 Y0.299 E32.01298
G1 X-14.201 Y14.449 E32.48361
G1 X-0.300 Y14.449 E32.94596
G0 F9000 X0.000 Y14.449
G0 X0.041 Y-0.042
G0 X-0.300 Y0.000
G0 X-0.300 Y-0.300
G1 F1800 X-0.300 Y-14.201 E33.40831
G1 X-14.201 Y-14.201 E33.87066
G1 X-14.201 Y-0.300 E34.33301
G1 X-0.300 Y-0.300 E34.79536
G0 F9000 X0.299 Y-0.300
G1 F1800 X14.199 Y-0.300 E35.25767
G1 X14.199 Y-14.201 E35.72002
G1 X0.299 Y-14.201 E36.18234
G1 X0.299 Y-0.300 E36.64469
G0 F9000 X0.159 Y-0.689
;TYPE:SKIN
G1 F1800 X0.000 Y-1.131 E36.65965
G1 X0.000 Y-1.697 E36.67461
G1 X0.000 Y-2.262 E36.68955
G1 X0.000 Y-2.828 E36.70452
G1 X0.000 Y-3.394 E36.71948
G1 X0.000 Y-3.959 E36.73442
G1 X0.000 Y-4.525 E36.74939
G1 X0.000 Y-5.091 E36.76436
G1 X0.000 Y-5.656 E36.77929
G1 X0.000 Y-6.222 E36.79426
G1 X0.000 Y-6.788 E36.80923
G1 X0.000 Y-7.353 E36.82417
G1 X0.000 Y-7.919 E36.83913
G1 X0.000 Y-8.485 E36.85410
G1 X0.000 Y-9.050 E36.86899
G1 X0.000 Y-9.616 E36.88396
G1 X0.000 Y-10.182 E36.89892
G1 X0.000 Y-10.747 E36.91382
G1 X0.000 Y-11.313 E36.92878
G1 X0.000 Y-11.879 E36.94375
G1 X0.000 Y-12.445 E36.95871
G1 X0.000 Y-13.010 E36.97365
G1 X0.000 Y-13.576 E36.98862
G1 X0.000 Y-14.142 E37.00359
G1 X-0.357 Y-14.499 E37.02206
G1 X-0.923 Y-14.499 E37.03698
G1 X-1.488 Y-14.499 E37.05187
G1 X-2.054 Y-14.499 E37.06679
G1 X-2.620 Y-14.499 E37.08171
G1 X-3.185 Y-14.499 E37.09660
G1 X-3.751 Y-14.499 E37.11152
G1 X-4.317 Y-14.499 E37.12644
G1 X-4.882 Y-14.499 E37.14133
G1 X-5.448 Y-14.499 E37.15625
G1 X-6.014 Y-14.499 E37.17117
G1 X-6.579 Y-14.499 E37.18606
G1 X-7.145 Y-14.499 E37.20098
G1 X-7.711 Y-14.499 E37.21590
G1 X-8.276 Y-14.499 E37.23079
G1 X-8.842 Y-14.499 E37.24571
G1 X-9.408 Y-14.499 E37.26063
G1 X-9.973 Y-14.499 E37.27552
G1 X-10.539 Y-14.499 E37.29044
G1 X-11.105 Y-14.499 E37.30536
G1 X-11.671 Y-14.499 E37.32028
G1 X-12.236 Y-14.499 E37.33517
G1 X-12.802 Y-14.499 E37.35009
G1 X-13.368 Y-14.499 E37.36501
G1 X-13.933 Y-14.499 E37.37990
G1 X-14.516 Y-14.516 E37.39484
G1 X-14.499 Y-13.933 E37.40978
G1 X-14.499 Y-13.367 E37.42470
G1 X-14.499 Y-12.801 E37.43966
G1 X-14.499 Y-12.236 E37.45455
G1 X-14.499 Y-11.670 E37.46947
G1 X-14.499 Y-11.104 E37.48444
G1 X-14.499 Y-10.539 E37.49933
G1 X-14.499 Y-9.973 E37.51425
G1 X-14.499 Y-9.407 E37.52917
G1 X-14.499 Y-8.842 E37.54406
G1 X-14.499 Y-8.276 E37.55898
G1 X-14.499 Y-7.710 E37.57390
G1 X-14.499 Y-7.145 E37.58879
G1 X-14.499 Y-6.579 E37.60371
G1 X-14.499 Y-6.013 E37.61863
G1 X-14.499 Y-5.448 E37.63352
G1 X-14.499 Y-4.882 E37.64844
G1 X-14.499 Y-4.316 E37.66336
G1 X-14.499 Y-3.750 E37.67833
G1 X-14.499 Y-3.185 E37.69322
G1 X-14.499 Y-2.619 E37.70814
G1 X-14.499 Y-2.053 E37.72311
G1 X-14.499 Y-1.488 E37.73800
G1 X-14.499 Y-0.922 E37.75292
G1 X-14.499 Y-0.356 E37.76788
G1 X-14.142 Y0.000 E37.78633
G1 X-13.576 Y0.000 E37.80130
G1 X-13.010 Y0.000 E37.81626
G1 X-12.445 Y0.000 E37.83120
G1 X-11.879 Y0.000 E37.84617
G1 X-11.313 Y0.000 E37.86113
G1 X-10.747 Y0.000 E37.87610
G1 X-10.182 Y0.000 E37.89099
G1 X-9.616 Y0.000 E37.90596
G1 X-9.050 Y0.000 E37.92092
G1 X-8.485 Y0.000 E37.93582
G1 X-7.919 Y0.000 E37.95078
G1 X-7.353 Y0.000 E37.96575
G1 X-6.788 Y0.000 E37.98069
G1 X-6.222 Y0.000 E37.99565
G1 X-5.656 Y0.000 E38.01062
G1 X-5.091 Y0.000 E38.02556
G1 X-4.525 Y0.000 E38.04053
G1 X-3.959 Y0.000 E38.05549
G1 X-3.394 Y0.000 E38.07043
G1 X-2.828 Y0.000 E38.08540
G1 X-2.262 Y0.000 E38.10036
G1 X-1.697 Y0.000 E38.11530
G1 X-1.131 Y0.000 E38.13027
G1 X-0.689 Y0.159 E38.14589
G0 F9000 X-0.442 Y-0.159
G1 F1800 X0.158 Y0.441 E38.17412
G0 F9000 X0.441 Y0.158
G1 F1800 X-0.159 Y-0.442 E38.20234
G0 F9000 X0.689 Y-0.159
G1 F1800 X1.130 Y0.000 E38.21723
G1 X1.696 Y0.000 E38.23210
G1 X2.262 Y0.000 E38.24702
G1 X2.827 Y0.000 E38.26191
G1 X3.393 Y0.000 E38.27678
G1 X3.959 Y0.000 E38.29170
G1 X4.525 Y0.000 E38.30662
G1 X5.090 Y0.000 E38.32151
G1 X5.656 Y0.000 E38.33643
G1 X6.222 Y0.000 E38.35135
G1 X6.787 Y0.000 E38.36624
G1 X7.353 Y0.000 E38.38116
G1 X7.919 Y0.000 E38.39608
G1 X8.484 Y0.000 E38.41097
G1 X9.050 Y0.000 E38.42585
G1 X9.616 Y0.000 E38.44077
G1 X10.181 Y0.000 E38.45566
G1 X10.747 Y0.000 E38.47053
G1 X11.313 Y0.000 E38.48545
G1 X11.878 Y0.000 E38.50034
G1 X12.444 Y0.000 E38.51521
G1 X13.010 Y0.000 E38.53013
G1 X13.575 Y0.000 E38.54503
G1 X14.141 Y0.000 E38.55990
G1 X14.498 Y0.355 E38.57836
G1 X14.498 Y0.921 E38.59342
G1 X14.498 Y1.487 E38.60843
G1 X14.498 Y2.052 E38.62347
G1 X14.498 Y2.618 E38.63853
G1 X14.498 Y3.184 E38.65354
G1 X14.498 Y3.749 E38.66857
G1 X14.498 Y4.315 E38.68363
G1 X14.498 Y4.881 E38.69865
G1 X14.498 Y5.446 E38.71368
G1 X14.498 Y6.012 E38.72874
G1 X14.498 Y6.578 E38.74375
G1 X14.498 Y7.143 E38.75879
G1 X14.498 Y7.709 E38.77385
G1 X14.498 Y8.275 E38.78886
G1 X14.498 Y8.840 E38.80389
G1 X14.498 Y9.406 E38.81895
G1 X14.498 Y9.972 E38.83397
G1 X14.498 Y10.538 E38.84898
G1 X14.498 Y11.103 E38.86401
G1 X14.498 Y11.669 E38.87907
G1 X14.498 Y12.235 E38.89409
G1 X14.498 Y12.800 E38.90912
G1 X14.498 Y13.366 E38.92418
G1 X14.498 Y13.932 E38.93919
G1 X14.658 Y14.375 E38.95486
G0 F9000 X14.499 Y14.375
G0 X14.540 Y-0.042
G0 X-0.042 Y-0.042
G0 X-0.001 Y14.583
G0 X0.158 Y14.583
G1 F1800 X0.000 Y14.141 E38.96977
G1 X0.000 Y13.575 E38.98469
G1 X0.000 Y13.009 E38.99961
G1 X0.000 Y12.444 E39.01450
G1 X0.000 Y11.878 E39.02942
G1 X0.000 Y11.312 E39.04434
G1 X0.000 Y10.747 E39.05923
G1 X0.000 Y10.181 E39.07415
G1 X0.000 Y9.615 E39.08907
G1 X0.000 Y9.050 E39.10396
G1 X0.000 Y8.484 E39.11888
G1 X0.000 Y7.918 E39.13380
G1 X0.000 Y7.352 E39.14872
G1 X0.000 Y6.787 E39.16361
G1 X0.000 Y6.221 E39.17853
G1 X0.000 Y5.655 E39.19345
G1 X0.000 Y5.090 E39.20834
G1 X0.000 Y4.524 E39.22326
G1 X0.000 Y3.958 E39.23818
G1 X0.000 Y3.393 E39.25307
G1 X0.000 Y2.827 E39.26799
G1 X0.000 Y2.261 E39.28291
G1 X0.000 Y1.696 E39.29780
G1 X0.000 Y1.130 E39.31272
G1 X-0.159 Y0.688 E39.32834
G0 F9000 X0.000 Y0.688
G0 X0.041 Y-0.042
G0 X-14.542 Y-0.042
G0 X-14.501 Y0.649
G0 X-14.340 Y0.649
G1 F1800 X-14.658 Y0.615 E39.34332
G1 X-14.499 Y1.339 E39.35823
G1 X-14.499 Y1.905 E39.37315
G1 X-14.499 Y2.470 E39.38804
G1 X-14.499 Y3.036 E39.40296
G1 X-14.499 Y3.602 E39.41788
G1 X-14.499 Y4.167 E39.43277
G1 X-14.499 Y4.733 E39.44769
G1 X-14.499 Y5.299 E39.46261
G1 X-14.499 Y5.864 E39.47751
G1 X-14.499 Y6.430 E39.49242
G1 X-14.499 Y6.996 E39.50734
G1 X-14.499 Y7.562 E39.52226
G1 X-14.499 Y8.127 E39.53715
G1 X-14.499 Y8.693 E39.55207
G1 X-14.499 Y9.259 E39.56699
G1 X-14.499 Y9.824 E39.58189
G1 X-14.499 Y10.390 E39.59680
G1 X-14.499 Y10.956 E39.61172
G1 X-14.499 Y11.521 E39.62662
G1 X-14.499 Y12.087 E39.64154
G1 X-14.499 Y12.653 E39.65645
G1 X-14.499 Y13.218 E39.67135
G1 X-14.499 Y13.784 E39.68627
G1 X-14.499 Y14.350 E39.70118
G1 X-14.474 Y14.658 E39.71146
G0 F9000 X-14.474 Y14.499
G0 X-14.542 Y-0.042
G0 X0.041 Y-0.042
G0 X14.540 Y0.041
G0 X14.499 Y-0.651
G0 X14.338 Y-0.651
G1 F1800 X14.658 Y-0.615 E39.72646
G1 X14.498 Y-1.340 E39.74146
G1 X14.498 Y-1.906 E39.75647
G1 X14.498 Y-2.472 E39.77148
G1 X14.498 Y-3.037 E39.78647
G1 X14.498 Y-3.603 E39.80148
G1 X14.498 Y-4.169 E39.81650
G1 X14.498 Y-4.734 E39.83148
G1 X14.498 Y-5.300 E39.84650
G1 X14.498 Y-5.866 E39.86151
G1 X14.498 Y-6.431 E39.87650
G1 X14.498 Y-6.997 E39.89151
G1 X14.498 Y-7.563 E39.90652
G1 X14.498 Y-8.128 E39.92151
G1 X14.498 Y-8.694 E39.93652
G1 X14.498 Y-9.260 E39.95154
G1 X14.498 Y-9.825 E39.96652
G1 X14.498 Y-10.391 E39.98154
G1 X14.498 Y-10.957 E39.99655
G1 X14.498 Y-11.522 E40.01154
G1 X14.498 Y-12.088 E40.02650
G1 X14.498 Y-12.654 E40.04151
G1 X14.498 Y-13.220 E40.05653
G1 X14.498 Y-13.785 E40.07151
G1 X14.282 Y-14.284 E40.08653
G1 X13.784 Y-14.499 E40.10145
G1 X13.218 Y-14.499 E40.11637
G1 X12.653 Y-14.499 E40.13127
G1 X12.087 Y-14.499 E40.14618
G1 X11.521 Y-14.499 E40.16110
G1 X10.956 Y-14.499 E40.17600
G1 X10.390 Y-14.499 E40.19092
G1 X9.824 Y-14.499 E40.20583
G1 X9.259 Y-14.499 E40.22073
G1 X8.693 Y-14.499 E40.23565
G1 X8.127 Y-14.499 E40.25057
G1 X7.562 Y-14.499 E40.26546
G1 X6.996 Y-14.499 E40.28038
G1 X6.430 Y-14.499 E40.29530
G1 X5.864 Y-14.499 E40.31021
G1 X5.299 Y-14.499 E40.32511
G1 X4.733 Y-14.499 E40.34003
G1 X4.167 Y-14.499 E40.35495
G1 X3.602 Y-14.499 E40.36984
G1 X3.036 Y-14.499 E40.38476
G1 X2.470 Y-14.499 E40.39968
G1 X1.905 Y-14.499 E40.41457
G1 X1.339 Y-14.499 E40.42949
G1 X0.773 Y-14.499 E40.44441
G1 X0.332 Y-14.658 E40.46000
G0 F9000 X0.332 Y-14.499
G0 X14.474 Y-14.499
G0 X14.474 Y-14.658
G1 F1800 X14.658 Y-14.474 E40.46865
;LAYER:1
M106 S89
G0 F9000 X14.799 Y-14.799 Z0.400
;TYPE:WALL-OUTER
G1 F1980 X14.799 Y14.799 E41.45309
G1 X-14.799 Y14.799 E42.43752
G1 X-14.799 Y-14.799 E43.42195
G1 X14.799 Y-14.799 E44.40639
G0 F9000 X14.199 Y-14.201
G1 F1980 X0.299 Y-14.201 E44.86870
G1 X0.299 Y-0.300 E45.33105
G1 X14.199 Y-0.300 E45.79337
G1 X14.199 Y-14.201 E46.25572
G0 F9000 X14.199 Y-14.501
G0 X-0.300 Y-14.501
G0 X-0.300 Y-14.201
G1 F1980 X-14.201 Y-14.201 E46.71807
G1 X-14.201 Y-0.300 E47.18042
G1 X-0.300 Y-0.300 E47.64276
G1 X-0.300 Y-14.201 E48.10511
G0 F9000 X-0.300 Y-14.501
G0 X0.041 Y-14.542
G0 X0.000 Y0.299
G0 X-0.300 Y0.299
G1 F1980 X-14.201 Y0.299 E48.56746
G1 X-14.201 Y14.449 E49.03809
G1 X-0.300 Y14.449 E49.50044
G1 X-0.300 Y0.299 E49.97107
G0 F9000 X0.299 Y0.299
G1 F1980 X0.299 Y14.449 E50.44171
G1 X14.199 Y14.449 E50.90402
G1 X14.199 Y0.299 E51.37465
G1 X0.299 Y0.299 E51.83697
G0 F9000 X0.689 Y0.159
;TYPE:SKIN
G1 F2100 X1.131 Y0.000 E51.85193
G1 X1.697 Y0.000 E51.86689
G1 X2.262 Y0.000 E51.88183
G1 X2.828 Y0.000 E51.89680
G1 X3.394 Y0.000 E51.91176
G1 X3.959 Y0.000 E51.92670
G1 X4.525 Y0.000 E51.94167
G1 X5.091 Y0.000 E51.95664
G1 X5.656 Y0.000 E51.97158
G1 X6.222 Y0.000 E51.98654
G1 X6.788 Y0.000 E52.00151
G1 X7.353 Y0.000 E52.01645
G1 X7.919 Y0.000 E52.03141
G1 X8.485 Y0.000 E52.04638
G1 X9.050 Y0.000 E52.06127
G1 X9.616 Y0.000 E52.07624
G1 X10.182 Y0.000 E52.09120
G1 X10.747 Y0.000 E52.10610
G1 X11.313 Y0.000 E52.12106
G1 X11.879 Y0.000 E52.13603
G1 X12.445 Y0.000 E52.15100
G1 X13.010 Y0.000 E52.16594
G1 X13.576 Y0.000 E52.18090
G1 X14.142 Y0.000 E52.19587
G1 X14.498 Y-0.356 E52.21433
G1 X14.498 Y-0.922 E52.22934
G1 X14.498 Y-1.487 E52.24433
G1 X14.498 Y-2.053 E52.25934
G1 X14.498 Y-2.619 E52.27435
G1 X14.498 Y-3.184 E52.28934
G1 X14.498 Y-3.750 E52.30435
G1 X14.498 Y-4.316 E52.31937
G1 X14.498 Y-4.881 E52.33435
G1 X14.498 Y-5.447 E52.34937
G1 X14.498 Y-6.013 E52.36438
G1 X14.498 Y-6.578 E52.37937
G1 X14.498 Y-7.144 E52.39438
G1 X14.498 Y-7.710 E52.40939
G1 X14.498 Y-8.275 E52.42438
G1 X14.498 Y-8.841 E52.43935
G1 X14.498 Y-9.407 E52.45436
G1 X14.498 Y-9.972 E52.46935
G1 X14.498 Y-10.538 E52.48431
G1 X14.498 Y-11.104 E52.49933
G1 X14.498 Y-11.670 E52.51434
G1 X14.498 Y-12.235 E52.52932
G1 X14.498 Y-12.801 E52.54434
G1 X14.498 Y-13.367 E52.55935
G1 X14.498 Y-13.932 E52.57434
G1 X14.516 Y-14.516 E52.58935
G1 X13.933 Y-14.499 E52.60429
G1 X13.367 Y-14.499 E52.61921
G1 X12.801 Y-14.499 E52.63417
G1 X12.236 Y-14.499 E52.64906
G1 X11.670 Y-14.499 E52.66398
G1 X11.104 Y-14.499 E52.67895
G1 X10.539 Y-14.499 E52.69384
G1 X9.973 Y-14.499 E52.70876
G1 X9.407 Y-14.499 E52.72368
G1 X8.842 Y-14.499 E52.73857
G1 X8.276 Y-14.499 E52.75349
G1 X7.710 Y-14.499 E52.76841
G1 X7.145 Y-14.499 E52.78330
G1 X6.579 Y-14.499 E52.79822
G1 X6.013 Y-14.499 E52.81314
G1 X5.448 Y-14.499 E52.82803
G1 X4.882 Y-14.499 E52.84295
G1 X4.316 Y-14.499 E52.85787
G1 X3.750 Y-14.499 E52.87284
G1 X3.185 Y-14.499 E52.88773
G1 X2.619 Y-14.499 E52.90265
G1 X2.053 Y-14.499 E52.91762
G1 X1.488 Y-14.499 E52.93251
G1 X0.922 Y-14.499 E52.94743
G1 X0.356 Y-14.499 E52.96239
G1 X0.000 Y-14.141 E52.98087
G1 X0.000 Y-13.575 E52.99583
G1 X0.000 Y-13.010 E53.01077
G1 X0.000 Y-12.444 E53.02574
G1 X0.000 Y-11.878 E53.04070
G1 X0.000 Y-11.312 E53.05567
G1 X0.000 Y-10.747 E53.07056
G1 X0.000 Y-10.181 E53.08553
G1 X0.000 Y-9.615 E53.10049
G1 X0.000 Y-9.050 E53.11539
G1 X0.000 Y-8.484 E53.13035
G1 X0.000 Y-7.918 E53.14532
G1 X0.000 Y-7.353 E53.16026
G1 X0.000 Y-6.787 E53.17522
G1 X0.000 Y-6.221 E53.19019
G1 X0.000 Y-5.656 E53.20513
G1 X0.000 Y-5.090 E53.22010
G1 X0.000 Y-4.524 E53.23506
G1 X0.000 Y-3.959 E53.25000
G1 X0.000 Y-3.393 E53.26497
G1 X0.000 Y-2.827 E53.27993
G1 X0.000 Y-2.261 E53.29490
G1 X0.000 Y-1.696 E53.30979
G1 X0.000 Y-1.130 E53.32476
G1 X-0.159 Y-0.688 E53.34038
G0 F9000 X0.159 Y-0.441
G1 F2100 X-0.441 Y0.159 E53.36860
G0 F9000 X-0.159 Y0.441
G1 F2100 X0.442 Y-0.159 E53.39685
G0 F9000 X0.158 Y0.690
G1 F2100 X0.000 Y1.131 E53.41173
G1 X0.000 Y1.697 E53.42665
G1 X0.000 Y2.262 E53.44154
G1 X0.000 Y2.828 E53.45641
G1 X0.000 Y3.394 E53.47133
G1 X0.000 Y3.960 E53.48625
G1 X0.000 Y4.525 E53.50114
G1 X0.000 Y5.091 E53.51606
G1 X0.000 Y5.657 E53.53098
G1 X0.000 Y6.222 E53.54587
G1 X0.000 Y6.788 E53.56079
G1 X0.000 Y7.354 E53.57571
G1 X0.000 Y7.919 E53.59060
G1 X0.000 Y8.485 E53.60548
G1 X0.000 Y9.051 E53.62040
G1 X0.000 Y9.616 E53.63529
G1 X0.000 Y10.182 E53.65016
G1 X0.000 Y10.748 E53.66508
G1 X0.000 Y11.313 E53.67997
G1 X0.000 Y11.879 E53.69484
G1 X0.000 Y12.445 E53.70976
G1 X0.000 Y13.011 E53.72468
G1 X0.000 Y13.576 E53.73957
G1 X0.000 Y14.142 E53.75449
G1 X-0.159 Y14.584 E53.77012
G0 F9000 X0.000 Y14.584
G0 X0.041 Y-0.042
G0 X-14.542 Y-0.042
G0 X-14.501 Y14.058
G0 X-14.341 Y14.058
G1 F2100 X-14.658 Y14.092 E53.78504
G1 X-14.499 Y13.368 E53.79990
G1 X-14.499 Y12.802 E53.81477
G1 X-14.499 Y12.236 E53.82964
G1 X-14.499 Y11.671 E53.84453
G1 X-14.499 Y11.105 E53.85940
G1 X-14.499 Y10.539 E53.87428
G1 X-14.499 Y9.973 E53.88915
G1 X-14.499 Y9.408 E53.90399
G1 X-14.499 Y8.842 E53.91887
G1 X-14.499 Y8.276 E53.93374
G1 X-14.499 Y7.711 E53.94858
G1 X-14.499 Y7.145 E53.96346
G1 X-14.499 Y6.579 E53.97833
G1 X-14.499 Y6.014 E53.99317
G1 X-14.499 Y5.448 E54.00804
G1 X-14.499 Y4.882 E54.02292
G1 X-14.499 Y4.317 E54.03776
G1 X-14.499 Y3.751 E54.05263
G1 X-14.499 Y3.185 E54.06751
G1 X-14.499 Y2.620 E54.08240
G1 X-14.499 Y2.054 E54.09727
G1 X-14.499 Y1.488 E54.11214
G1 X-14.499 Y0.923 E54.12704
G1 X-14.499 Y0.357 E54.14191
