;Generated with Cura_SteamEngine 15.01
; Default start code
; Set bed temperature
M140 S60
; Activate all used extruder
M104 T0 S190
G28 ; Home extruder
G1 Z15 F5000
M107 ; Turn off fan
G90 ; Absolute positioning
M82 ; Extruder in absolute mode
G92 E0 ; Reset extruder position
; Wait for hot bed to reach temperature
M190 S60
; Wait for all used extruders to reach temperature
M109 T0 S190
;Layer count: 115
;LAYER:0
M107
G0 F9000 X19.800 Y19.800 Z0.200
;TYPE:SKIRT
G1 F1800 X-19.800 Y19.800 E1.31710
G1 X-19.800 Y-19.800 E2.63420
G1 X19.800 Y-19.800 E3.95130
G1 X19.800 Y19.800 E5.26841
G0 F9000 X19.400 Y19.400
G1 F1800 X-19.400 Y19.400 E6.55890
G1 X-19.400 Y-19.400 E7.84939
G1 X19.400 Y-19.400 E9.13989
G1 X19.400 Y19.400 E10.43038
G0 F9000 X19.000 Y19.000
G1 F1800 X-19.000 Y19.000 E11.69426
G1 X-19.000 Y-19.000 E12.95815
G1 X19.000 Y-19.000 E14.22203
G1 X19.000 Y19.000 E15.48592
G0 F9000 X18.600 Y18.600
G1 F1800 X-18.600 Y18.600 E16.72320
G1 X-18.600 Y-18.600 E17.96047
G1 X18.600 Y-18.600 E19.19775
G1 X18.600 Y18.600 E20.43503
G0 F9000 X18.200 Y18.200
G1 F1800 X-18.200 Y18.200 E21.64570
G1 X-18.200 Y-18.200 E22.85636
G1 X18.200 Y-18.200 E24.06703
G1 X18.200 Y18.200 E25.27770
G1 F3000 E20.27770
G1 Z0.700
G0 F9000 X14.400 Y14.400
;TYPE:WALL-INNER
G1 Z0.200
G1 F3000 E25.27770
G1 F1800 X-14.400 Y14.400 E26.23559
G1 X-14.400 Y-14.400 E27.19349
G1 X14.400 Y-14.400 E28.15138
G1 X14.400 Y14.400 E29.10927
G0 F9000 X14.800 Y14.800
;TYPE:WALL-OUTER
G1 F1800 X-14.800 Y14.800 E30.09377
G1 X-14.800 Y-14.800 E31.07827
G1 X14.800 Y-14.800 E32.06277
G1 X14.800 Y14.800 E33.04727
G0 F9000 X13.976 Y14.259
;TYPE:SKIN
G1 F1800 X-14.259 Y-13.976 E34.37536
G0 F9000 X-13.976 Y-14.259
G1 F1800 X14.259 Y13.976 E35.70345
G0 F9000 X14.259 Y13.410
G1 F1800 X-13.410 Y-14.259 E37.00491
G0 F9000 X-12.845 Y-14.259
G1 F1800 X14.259 Y12.845 E38.27980
G0 F9000 X14.259 Y12.279
G1 F1800 X-12.279 Y-14.259 E39.52807
G0 F9000 X-11.713 Y-14.259
G1 F1800 X14.259 Y11.713 E40.74971
G0 F9000 X14.259 Y11.148
G1 F1800 X-11.148 Y-14.259 E41.94478
G0 F9000 X-10.582 Y-14.259
G1 F1800 X14.259 Y10.582 E43.11322
G0 F9000 X14.259 Y10.016
G1 F1800 X-10.016 Y-14.259 E44.25504
G0 F9000 X-9.451 Y-14.259
G1 F1800 X14.259 Y9.451 E45.37029
G0 F9000 X14.259 Y8.885
G1 F1800 X-8.885 Y-14.259 E46.45891
G0 F9000 X-8.319 Y-14.259
G1 F1800 X14.259 Y8.319 E47.52091
G0 F9000 X14.259 Y7.754
G1 F1800 X-7.754 Y-14.259 E48.55634
G0 F9000 X-7.188 Y-14.259
G1 F1800 X14.259 Y7.188 E49.56514
G0 F9000 X14.259 Y6.622
G1 F1800 X-6.622 Y-14.259 E50.54731
G0 F9000 X-6.057 Y-14.259
G1 F1800 X14.259 Y6.057 E51.50292
G0 F9000 X14.259 Y5.491
G1 F1800 X-5.491 Y-14.259 E52.43190
G0 F9000 X-4.925 Y-14.259
G1 F1800 X14.259 Y4.925 E53.33425
G0 F9000 X14.259 Y4.360
G1 F1800 X-4.360 Y-14.259 E54.21003
G0 F9000 X-3.794 Y-14.259
G1 F1800 X14.259 Y3.794 E55.05919
G0 F9000 X14.259 Y3.228
G1 F1800 X-3.228 Y-14.259 E55.88173
G0 F9000 X-2.662 Y-14.259
G1 F1800 X14.259 Y2.662 E56.67764
G0 F9000 X14.259 Y2.097
G1 F1800 X-2.097 Y-14.259 E57.44697
G0 F9000 X-1.531 Y-14.259
G1 F1800 X14.259 Y1.531 E58.18969
G0 F9000 X14.259 Y0.965
G1 F1800 X-0.965 Y-14.259 E58.90578
G0 F9000 X-0.400 Y-14.259
G1 F1800 X14.259 Y0.400 E59.59529
G0 F9000 X14.259 Y-0.165
G1 F1800 X0.165 Y-14.259 E60.25823
G0 F9000 X0.731 Y-14.259
G1 F1800 X14.259 Y-0.731 E60.89455
G0 F9000 X14.259 Y-1.296
G1 F1800 X1.296 Y-14.259 E61.50429
G0 F9000 X1.862 Y-14.259
G1 F1800 X14.259 Y-1.862 E62.08740
G0 F9000 X14.259 Y-2.428
G1 F1800 X2.428 Y-14.259 E62.64390
G0 F9000 X2.993 Y-14.259
G1 F1800 X14.259 Y-2.993 E63.17381
G0 F9000 X14.259 Y-3.559
G1 F1800 X3.559 Y-14.259 E63.67711
G0 F9000 X4.125 Y-14.259
G1 F1800 X14.259 Y-4.125 E64.15378
G0 F9000 X14.259 Y-4.690
G1 F1800 X4.690 Y-14.259 E64.60388
G0 F9000 X5.256 Y-14.259
G1 F1800 X14.259 Y-5.256 E65.02735
G0 F9000 X14.259 Y-5.822
G1 F1800 X5.822 Y-14.259 E65.42420
G0 F9000 X6.388 Y-14.259
G1 F1800 X14.259 Y-6.388 E65.79443
G0 F9000 X14.259 Y-6.953
G1 F1800 X6.953 Y-14.259 E66.13808
G0 F9000 X7.519 Y-14.259
G1 F1800 X14.259 Y-7.519 E66.45511
G0 F9000 X14.259 Y-8.085
G1 F1800 X8.085 Y-14.259 E66.74552
G0 F9000 X8.650 Y-14.259
G1 F1800 X14.259 Y-8.650 E67.00935
G0 F9000 X14.259 Y-9.216
G1 F1800 X9.216 Y-14.259 E67.24655
G0 F9000 X9.782 Y-14.259
G1 F1800 X14.259 Y-9.782 E67.45714
G0 F9000 X14.259 Y-10.347
G1 F1800 X10.347 Y-14.259 E67.64115
G0 F9000 X10.913 Y-14.259
G1 F1800 X14.259 Y-10.913 E67.79853
G0 F9000 X14.259 Y-11.479
G1 F1800 X11.479 Y-14.259 E67.92930
G0 F9000 X12.044 Y-14.259
G1 F1800 X14.259 Y-12.044 E68.03348
G0 F9000 X14.259 Y-12.610
G1 F1800 X12.610 Y-14.259 E68.11105
G0 F9000 X13.176 Y-14.259
G1 F1800 X14.259 Y-13.176 E68.16199
G0 F9000 X14.259 Y-13.741
G1 F1800 X13.741 Y-14.259 E68.18635
G0 F9000 X-14.259 Y-13.410
G1 F1800 X13.410 Y14.259 E69.48782
G0 F9000 X12.845 Y14.259
G1 F1800 X-14.259 Y-12.845 E70.76271
G0 F9000 X-14.259 Y-12.279
G1 F1800 X12.279 Y14.259 E72.01097
G0 F9000 X11.713 Y14.259
G1 F1800 X-14.259 Y-11.713 E73.23262
G0 F9000 X-14.259 Y-11.148
G1 F1800 X11.148 Y14.259 E74.42768
G0 F9000 X10.582 Y14.259
G1 F1800 X-14.259 Y-10.582 E75.59613
G0 F9000 X-14.259 Y-10.016
G1 F1800 X10.016 Y14.259 E76.73795
G0 F9000 X9.451 Y14.259
G1 F1800 X-14.259 Y-9.451 E77.85320
G0 F9000 X-14.259 Y-8.885
G1 F1800 X8.885 Y14.259 E78.94182
G0 F9000 X8.319 Y14.259
G1 F1800 X-14.259 Y-8.319 E80.00382
G0 F9000 X-14.259 Y-7.754
G1 F1800 X7.754 Y14.259 E81.03924
G0 F9000 X7.188 Y14.259
G1 F1800 X-14.259 Y-7.188 E82.04804
G0 F9000 X-14.259 Y-6.622
G1 F1800 X6.622 Y14.259 E83.03022
G0 F9000 X6.057 Y14.259
G1 F1800 X-14.259 Y-6.057 E83.98582
G0 F9000 X-14.259 Y-5.491
G1 F1800 X5.491 Y14.259 E84.91480
G0 F9000 X4.925 Y14.259
G1 F1800 X-14.259 Y-4.925 E85.81716
G0 F9000 X-14.259 Y-4.360
G1 F1800 X4.360 Y14.259 E86.69294
G0 F9000 X3.794 Y14.259
G1 F1800 X-14.259 Y-3.794 E87.54210
G0 F9000 X-14.259 Y-3.228
G1 F1800 X3.228 Y14.259 E88.36463
G0 F9000 X2.662 Y14.259
G1 F1800 X-14.259 Y-2.662 E89.16055
G0 F9000 X-14.259 Y-2.097
G1 F1800 X2.097 Y14.259 E89.92988
G0 F9000 X1.531 Y14.259
G1 F1800 X-14.259 Y-1.531 E90.67259
G0 F9000 X-14.259 Y-0.965
G1 F1800 X0.965 Y14.259 E91.38868
G0 F9000 X0.400 Y14.259
G1 F1800 X-14.259 Y-0.400 E92.07820
G0 F9000 X-14.259 Y0.165
G1 F1800 X-0.165 Y14.259 E92.74114
G0 F9000 X-0.731 Y14.259
G1 F1800 X-14.259 Y0.731 E93.37745
G0 F9000 X-14.259 Y1.296
G1 F1800 X-1.296 Y14.259 E93.98719
G0 F9000 X-1.862 Y14.259
G1 F1800 X-14.259 Y1.862 E94.57031
G0 F9000 X-14.259 Y2.428
G1 F1800 X-2.428 Y14.259 E95.12680
G0 F9000 X-2.993 Y14.259
G1 F1800 X-14.259 Y2.993 E95.65672
G0 F9000 X-14.259 Y3.559
G1 F1800 X-3.559 Y14.259 E96.16002
G0 F9000 X-4.125 Y14.259
G1 F1800 X-14.259 Y4.125 E96.63669
G0 F9000 X-14.259 Y4.690
G1 F1800 X-4.690 Y14.259 E97.08679
G0 F9000 X-5.256 Y14.259
G1 F1800 X-14.259 Y5.256 E97.51026
G0 F9000 X-14.259 Y5.822
G1 F1800 X-5.822 Y14.259 E97.90711
G0 F9000 X-6.388 Y14.259
G1 F1800 X-14.259 Y6.388 E98.27734
G0 F9000 X-14.259 Y6.953
G1 F1800 X-6.953 Y14.259 E98.62099
G0 F9000 X-7.519 Y14.259
G1 F1800 X-14.259 Y7.519 E98.93802
G0 F9000 X-14.259 Y8.085
G1 F1800 X-8.085 Y14.259 E99.22842
G0 F9000 X-8.650 Y14.259
G1 F1800 X-14.259 Y8.650 E99.49225
G0 F9000 X-14.259 Y9.216
G1 F1800 X-9.216 Y14.259 E99.72946
G0 F9000 X-9.782 Y14.259
G1 F1800 X-14.259 Y9.782 E99.94005
G0 F9000 X-14.259 Y10.347
G1 F1800 X-10.347 Y14.259 E100.12405
G0 F9000 X-10.913 Y14.259
G1 F1800 X-14.259 Y10.913 E100.28144
G0 F9000 X-14.259 Y11.479
G1 F1800 X-11.479 Y14.259 E100.41220
G0 F9000 X-12.044 Y14.259
G1 F1800 X-14.259 Y12.044 E100.51639
G0 F9000 X-14.259 Y12.610
G1 F1800 X-12.610 Y14.259 E100.59395
G0 F9000 X-13.176 Y14.259
G1 F1800 X-14.259 Y13.176 E100.64489
G0 F9000 X-14.259 Y13.741
G1 F1800 X-13.741 Y14.259 E100.66926
;LAYER:1
M106 S89
G0 F9000 X-14.400 Y14.400 Z0.400
;TYPE:WALL-INNER
G1 F2220 X-14.400 Y-14.400 E101.62715
G1 X14.400 Y-14.400 E102.58504
G1 X14.400 Y14.400 E103.54294
G1 X-14.400 Y14.400 E104.50083
G0 F9000 X-14.800 Y14.800
;TYPE:WALL-OUTER
G1 F1980 X-14.800 Y-14.800 E105.48533
G1 X14.800 Y-14.800 E106.46983
G1 X14.800 Y14.800 E107.45433
G1 X-14.800 Y14.800 E108.43883
G0 F9000 X-13.976 Y14.259
;TYPE:SKIN
G1 F2100 X14.259 Y-13.976 E109.76692
G0 F9000 X13.976 Y-14.259
G1 F2100 X-14.259 Y13.976 E111.09500
G0 F9000 X-14.259 Y13.410
G1 F2100 X13.410 Y-14.259 E112.39647
G0 F9000 X12.845 Y-14.259
G1 F2100 X-14.259 Y12.845 E113.67136
G0 F9000 X-14.259 Y12.279
G1 F2100 X12.279 Y-14.259 E114.91962
G0 F9000 X11.713 Y-14.259
G1 F2100 X-14.259 Y11.713 E116.14127
G0 F9000 X-14.259 Y11.148
G1 F2100 X11.148 Y-14.259 E117.33633
G0 F9000 X10.582 Y-14.259
G1 F2100 X-14.259 Y10.582 E118.50478
G0 F9000 X-14.259 Y10.016
G1 F2100 X10.016 Y-14.259 E119.64660
G0 F9000 X9.451 Y-14.259
G1 F2100 X-14.259 Y9.451 E120.76185
G0 F9000 X-14.259 Y8.885
G1 F2100 X8.885 Y-14.259 E121.85047
G0 F9000 X8.319 Y-14.259
G1 F2100 X-14.259 Y8.319 E122.91247
G0 F9000 X-14.259 Y7.754
G1 F2100 X7.754 Y-14.259 E123.94789
G0 F9000 X7.188 Y-14.259
G1 F2100 X-14.259 Y7.188 E124.95669
G0 F9000 X-14.259 Y6.622
G1 F2100 X6.622 Y-14.259 E125.93887
G0 F9000 X6.057 Y-14.259
G1 F2100 X-14.259 Y6.057 E126.89447
G0 F9000 X-14.259 Y5.491
G1 F2100 X5.491 Y-14.259 E127.82345
G0 F9000 X4.925 Y-14.259
G1 F2100 X-14.259 Y4.925 E128.72581
G0 F9000 X-14.259 Y4.360
G1 F2100 X4.360 Y-14.259 E129.60159
G0 F9000 X3.794 Y-14.259
G1 F2100 X-14.259 Y3.794 E130.45075
G0 F9000 X-14.259 Y3.228
G1 F2100 X3.228 Y-14.259 E131.27328
G0 F9000 X2.662 Y-14.259
G1 F2100 X-14.259 Y2.662 E132.06920
G0 F9000 X-14.259 Y2.097
G1 F2100 X2.097 Y-14.259 E132.83853
G0 F9000 X1.531 Y-14.259
G1 F2100 X-14.259 Y1.531 E133.58124
G0 F9000 X-14.259 Y0.965
G1 F2100 X0.965 Y-14.259 E134.29733
G0 F9000 X0.400 Y-14.259
G1 F2100 X-14.259 Y0.400 E134.98685
G0 F9000 X-14.259 Y-0.165
G1 F2100 X-0.165 Y-14.259 E135.64979
G0 F9000 X-0.731 Y-14.259
G1 F2100 X-14.259 Y-0.731 E136.28610
G0 F9000 X-14.259 Y-1.296
G1 F2100 X-1.296 Y-14.259 E136.89584
G0 F9000 X-1.862 Y-14.259
G1 F2100 X-14.259 Y-1.862 E137.47896
G0 F9000 X-14.259 Y-2.428
G1 F2100 X-2.428 Y-14.259 E138.03545
G0 F9000 X-2.993 Y-14.259
G1 F2100 X-14.259 Y-2.993 E138.56537
G0 F9000 X-14.259 Y-3.559
G1 F2100 X-3.559 Y-14.259 E139.06867
G0 F9000 X-4.125 Y-14.259
G1 F2100 X-14.259 Y-4.125 E139.54534
G0 F9000 X-14.259 Y-4.690
G1 F2100 X-4.690 Y-14.259 E139.99544
G0 F9000 X-5.256 Y-14.259
G1 F2100 X-14.259 Y-5.256 E140.41891
G0 F9000 X-14.259 Y-5.822
G1 F2100 X-5.822 Y-14.259 E140.81576
G0 F9000 X-6.388 Y-14.259
G1 F2100 X-14.259 Y-6.388 E141.18599
G0 F9000 X-14.259 Y-6.953
G1 F2100 X-6.953 Y-14.259 E141.52964
G0 F9000 X-7.519 Y-14.259
G1 F2100 X-14.259 Y-7.519 E141.84667
G0 F9000 X-14.259 Y-8.085
G1 F2100 X-8.085 Y-14.259 E142.13707
G0 F9000 X-8.650 Y-14.259
G1 F2100 X-14.259 Y-8.650 E142.40090
G0 F9000 X-14.259 Y-9.216
G1 F2100 X-9.216 Y-14.259 E142.63811
G0 F9000 X-9.782 Y-14.259
G1 F2100 X-14.259 Y-9.782 E142.84870
G0 F9000 X-14.259 Y-10.347
G1 F2100 X-10.347 Y-14.259 E143.03271
G0 F9000 X-10.913 Y-14.259
G1 F2100 X-14.259 Y-10.913 E143.19009
G0 F9000 X-14.259 Y-11.479
G1 F2100 X-11.479 Y-14.259 E143.32085
G0 F9000 X-12.044 Y-14.259
G1 F2100 X-14.259 Y-12.044 E143.42504
G0 F9000 X-14.259 Y-12.610
G1 F2100 X-12.610 Y-14.259 E143.50260
G0 F9000 X-13.176 Y-14.259
G1 F2100 X-14.259 Y-13.176 E143.55355
G0 F9000 X-14.259 Y-13.741
G1 F2100 X-13.741 Y-14.259 E143.57791
G0 F9000 X14.259 Y-13.410
G1 F2100 X-13.410 Y14.259 E144.87938
G0 F9000 X-12.845 Y14.259
G1 F2100 X14.259 Y-12.845 E146.15426
G0 F9000 X14.259 Y-12.279
G1 F2100 X-12.279 Y14.259 E147.40253
G0 F9000 X-11.713 Y14.259
G1 F2100 X14.259 Y-11.713 E148.62417
G0 F9000 X14.259 Y-11.148
G1 F2100 X-11.148 Y14.259 E149.81924
G0 F9000 X-10.582 Y14.259
G1 F2100 X14.259 Y-10.582 E150.98769
G0 F9000 X14.259 Y-10.016
G1 F2100 X-10.016 Y14.259 E152.12951
G0 F9000 X-9.451 Y14.259
G1 F2100 X14.259 Y-9.451 E153.24475
G0 F9000 X14.259 Y-8.885
G1 F2100 X-8.885 Y14.259 E154.33338
G0 F9000 X-8.319 Y14.259
G1 F2100 X14.259 Y-8.319 E155.39538
G0 F9000 X14.259 Y-7.754
G1 F2100 X-7.754 Y14.259 E156.43080
G0 F9000 X-7.188 Y14.259
G1 F2100 X14.259 Y-7.188 E157.43960
G0 F9000 X14.259 Y-6.622
G1 F2100 X-6.622 Y14.259 E158.42178
G0 F9000 X-6.057 Y14.259
G1 F2100 X14.259 Y-6.057 E159.37738
G0 F9000 X14.259 Y-5.491
G1 F2100 X-5.491 Y14.259 E160.30636
G0 F9000 X-4.925 Y14.259
G1 F2100 X14.259 Y-4.925 E161.20872
G0 F9000 X14.259 Y-4.360
G1 F2100 X-4.360 Y14.259 E162.08450
G0 F9000 X-3.794 Y14.259
G1 F2100 X14.259 Y-3.794 E162.93366
G0 F9000 X14.259 Y-3.228
G1 F2100 X-3.228 Y14.259 E163.75619
G0 F9000 X-2.662 Y14.259
G1 F2100 X14.259 Y-2.662 E164.55210
G0 F9000 X14.259 Y-2.097
G1 F2100 X-2.097 Y14.259 E165.32144
G0 F9000 X-1.531 Y14.259
G1 F2100 X14.259 Y-1.531 E166.06415
G0 F9000 X14.259 Y-0.965
G1 F2100 X-0.965 Y14.259 E166.78024
G0 F9000 X-0.400 Y14.259
G1 F2100 X14.259 Y-0.400 E167.46976
G0 F9000 X14.259 Y0.165
G1 F2100 X0.165 Y14.259 E168.13269
G0 F9000 X0.731 Y14.259
G1 F2100 X14.259 Y0.731 E168.76901
G0 F9000 X14.259 Y1.296
G1 F2100 X1.296 Y14.259 E169.37875
G0 F9000 X1.862 Y14.259
G1 F2100 X14.259 Y1.862 E169.96187
G0 F9000 X14.259 Y2.428
G1 F2100 X2.428 Y14.259 E170.51836
G0 F9000 X2.993 Y14.259
G1 F2100 X14.259 Y2.993 E171.04828
G0 F9000 X14.259 Y3.559
G1 F2100 X3.559 Y14.259 E171.55157
G0 F9000 X4.125 Y14.259
G1 F2100 X14.259 Y4.125 E172.02825
G0 F9000 X14.259 Y4.690
G1 F2100 X4.690 Y14.259 E172.47834
G0 F9000 X5.256 Y14.259
G1 F2100 X14.259 Y5.256 E172.90182
G0 F9000 X14.259 Y5.822
G1 F2100 X5.822 Y14.259 E173.29867
G0 F9000 X6.388 Y14.259
G1 F2100 X14.259 Y6.388 E173.66890
G0 F9000 X14.259 Y6.953
G1 F2100 X6.953 Y14.259 E174.01255
G0 F9000 X7.519 Y14.259
G1 F2100 X14.259 Y7.519 E174.32958
G0 F9000 X14.259 Y8.085
G1 F2100 X8.085 Y14.259 E174.61998
G0 F9000 X8.650 Y14.259
G1 F2100 X14.259 Y8.650 E174.88381
G0 F9000 X14.259 Y9.216
G1 F2100 X9.216 Y14.259 E175.12102
G0 F9000 X9.782 Y14.259
G1 F2100 X14.259 Y9.782 E175.33160
G0 F9000 X14.259 Y10.347
G1 F2100 X10.347 Y14.259 E175.51561
G0 F9000 X10.913 Y14.259
G1 F2100 X14.259 Y10.913 E175.67300
G0 F9000 X14.259 Y11.479
G1 F2100 X11.479 Y14.259 E175.80376
G0 F9000 X12.044 Y14.259
G1 F2100 X14.259 Y12.044 E175.90795
G0 F9000 X14.259 Y12.610
G1 F2100 X12.610 Y14.259 E175.98551
G0 F9000 X13.176 Y14.259
G1 F2100 X14.259 Y13.176 E176.03645
G0 F9000 X14.259 Y13.741
G1 F2100 X13.741 Y14.259 E176.06082
;LAYER:2
M106 S178
G0 F9000 X14.400 Y14.400 Z0.600
;TYPE:WALL-INNER
G1 F2700 X-14.400 Y14.400 E177.01871
G1 X-14.400 Y-14.400 E177.97660
G1 X14.400 Y-14.400 E178.93449
G1 X14.400 Y14.400 E179.89238
G0 F9000 X14.800 Y14.800
;TYPE:WALL-OUTER
G1 F2220 X-14.800 Y14.800 E180.87688
G1 X-14.800 Y-14.800 E181.86138
G1 X14.800 Y-14.800 E182.84588
G1 X14.800 Y14.800 E183.83038
G0 F9000 X13.976 Y14.259
;TYPE:SKIN
G1 F2520 X-14.259 Y-13.976 E185.15847
G0 F9000 X-13.976 Y-14.259
G1 F2520 X14.259 Y13.976 E186.48656
G0 F9000 X14.259 Y13.410
G1 F2520 X-13.410 Y-14.259 E187.78803
G0 F9000 X-12.845 Y-14.259
G1 F2520 X14.259 Y12.845 E189.06291
G0 F9000 X14.259 Y12.279
G1 F2520 X-12.279 Y-14.259 E190.31118
G0 F9000 X-11.713 Y-14.259
G1 F2520 X14.259 Y11.713 E191.53282
G0 F9000 X14.259 Y11.148
G1 F2520 X-11.148 Y-14.259 E192.72789
G0 F9000 X-10.582 Y-14.259
G1 F2520 X14.259 Y10.582 E193.89634
G0 F9000 X14.259 Y10.016
G1 F2520 X-10.016 Y-14.259 E195.03816
G0 F9000 X-9.451 Y-14.259
G1 F2520 X14.259 Y9.451 E196.15340
G0 F9000 X14.259 Y8.885
G1 F2520 X-8.885 Y-14.259 E197.24203
G0 F9000 X-8.319 Y-14.259
G1 F2520 X14.259 Y8.319 E198.30403
G0 F9000 X14.259 Y7.754
G1 F2520 X-7.754 Y-14.259 E199.33945
G0 F9000 X-7.188 Y-14.259
G1 F2520 X14.259 Y7.188 E200.34825
