;Generated with Cura_SteamEngine 15.01
; Default start code
; Set bed temperature
M140 S60
; Activate all used extruder
M104 T0 S190
G28 ; Home extruder
G1 Z15 F5000
M107 ; Turn off fan
G90 ; Absolute positioning
M82 ; Extruder in absolute mode
G92 E0 ; Reset extruder position
; Wait for hot bed to reach temperature
M190 S60
; Wait for all used extruders to reach temperature
M109 T0 S190
;Layer count: 25
;LAYER:0
M107
G0 F9000 X-40.200 Y-40.200 Z0.200
;TYPE:SKIRT
G1 F1800 X-40.200 Y54.800 E3.15971
G1 X-54.800 Y54.800 E3.64531
G1 X-54.800 Y-54.800 E7.29062
G1 X54.800 Y-54.800 E10.93593
G1 X54.800 Y-40.200 E11.42153
G1 X-40.200 Y-40.200 E14.58124
G0 F9000 X-40.600 Y-40.600
G1 F1800 X-40.600 Y54.400 E17.74096
G1 X-54.400 Y54.400 E18.19995
G1 X-54.400 Y-54.400 E21.81865
G1 X54.400 Y-54.400 E25.43735
G1 X54.400 Y-40.600 E25.89634
G1 X-40.600 Y-40.600 E29.05605
G0 F9000 X-41.000 Y-41.000
G1 F1800 X-41.000 Y54.000 E32.21577
G1 X-54.000 Y54.000 E32.64815
G1 X-54.000 Y-54.000 E36.24024
G1 X54.000 Y-54.000 E39.83234
G1 X54.000 Y-41.000 E40.26472
G1 X-41.000 Y-41.000 E43.42443
G0 F9000 X-41.400 Y-41.400
G1 F1800 X-41.400 Y53.600 E46.58415
G1 X-53.600 Y53.600 E46.98992
G1 X-53.600 Y-53.600 E50.55541
G1 X53.600 Y-53.600 E54.12089
G1 X53.600 Y-41.400 E54.52667
G1 X-41.400 Y-41.400 E57.68638
G0 F9000 X-41.800 Y-41.800
G1 F1800 X-41.800 Y53.200 E60.84609
G1 X-53.200 Y53.200 E61.22526
G1 X-53.200 Y-53.200 E64.76413
G1 X53.200 Y-53.200 E68.30301
G1 X53.200 Y-41.800 E68.68218
G1 X-41.800 Y-41.800 E71.84189
G1 F3000 E66.84189
G1 Z0.700
G0 F9000 X-45.600 Y-45.600
;TYPE:WALL-INNER
G1 Z0.200
G1 F3000 E71.84189
G1 F1800 X-45.600 Y49.400 E75.00160
G1 X-49.400 Y49.400 E75.12799
G1 X-49.400 Y-49.400 E78.41409
G1 X49.400 Y-49.400 E81.70020
G1 X49.400 Y-45.600 E81.82658
G1 X-45.600 Y-45.600 E84.98630
G0 F9000 X-45.200 Y-45.200
;TYPE:WALL-OUTER
G1 F1800 X-45.200 Y49.800 E88.14601
G1 X-49.800 Y49.800 E88.29901
G1 X-49.800 Y-49.800 E91.61172
G1 X49.800 Y-49.800 E94.92443
G1 X49.800 Y-45.200 E95.07742
G1 X-45.200 Y-45.200 E98.23713
G0 F9000 X-45.739 Y-45.457
;TYPE:SKIN
G1 F1800 X-49.259 Y-48.977 E98.40270
G0 F9000 X-48.977 Y-49.259
G1 F1800 X-45.457 Y-45.739 E98.56827
G0 F9000 X-44.891 Y-45.739
G1 F1800 X-48.411 Y-49.259 E98.73384
G0 F9000 X-47.845 Y-49.259
G1 F1800 X-44.325 Y-45.739 E98.89941
G0 F9000 X-43.760 Y-45.739
G1 F1800 X-47.279 Y-49.259 E99.06496
G0 F9000 X-46.714 Y-49.259
G1 F1800 X-43.194 Y-45.739 E99.23053
G0 F9000 X-42.628 Y-45.739
G1 F1800 X-46.148 Y-49.259 E99.39610
G0 F9000 X-45.582 Y-49.259
G1 F1800 X-42.062 Y-45.739 E99.56167
G0 F9000 X-41.497 Y-45.739
G1 F1800 X-45.017 Y-49.259 E99.72724
G0 F9000 X-44.451 Y-49.259
G1 F1800 X-40.931 Y-45.739 E99.89281
G0 F9000 X-40.365 Y-45.739
G1 F1800 X-43.885 Y-49.259 E100.05838
G0 F9000 X-43.320 Y-49.259
G1 F1800 X-39.800 Y-45.739 E100.22395
G0 F9000 X-39.234 Y-45.739
G1 F1800 X-42.754 Y-49.259 E100.38952
G0 F9000 X-42.188 Y-49.259
G1 F1800 X-38.668 Y-45.739 E100.55509
G0 F9000 X-38.103 Y-45.739
G1 F1800 X-41.623 Y-49.259 E100.72066
G0 F9000 X-41.057 Y-49.259
G1 F1800 X-37.537 Y-45.739 E100.88623
G0 F9000 X-36.971 Y-45.739
G1 F1800 X-40.491 Y-49.259 E101.05180
G0 F9000 X-45.541 Y-45.541
G0 X-45.739 Y-44.891
G1 F1800 X-49.259 Y-48.411 E101.21737
G0 F9000 X-49.259 Y-47.845
G1 F1800 X-45.739 Y-44.325 E101.38294
G0 F9000 X-45.739 Y-43.760
G1 F1800 X-49.259 Y-47.279 E101.54849
G0 F9000 X-49.259 Y-46.714
G1 F1800 X-45.739 Y-43.194 E101.71406
G0 F9000 X-45.739 Y-42.628
G1 F1800 X-49.259 Y-46.148 E101.87963
G0 F9000 X-49.259 Y-45.582
G1 F1800 X-45.739 Y-42.062 E102.04520
G0 F9000 X-45.739 Y-41.497
G1 F1800 X-49.259 Y-45.017 E102.21077
G0 F9000 X-49.259 Y-44.451
G1 F1800 X-45.739 Y-40.931 E102.37634
G0 F9000 X-45.739 Y-40.365
G1 F1800 X-49.259 Y-43.885 E102.54191
G0 F9000 X-49.259 Y-43.320
G1 F1800 X-45.739 Y-39.800 E102.70748
G0 F9000 X-45.739 Y-39.234
G1 F1800 X-49.259 Y-42.754 E102.87305
G0 F9000 X-49.259 Y-42.188
G1 F1800 X-45.739 Y-38.668 E103.03862
G0 F9000 X-45.739 Y-38.103
G1 F1800 X-49.259 Y-41.623 E103.20419
G0 F9000 X-49.259 Y-41.057
G1 F1800 X-45.739 Y-37.537 E103.36976
G0 F9000 X-45.739 Y-36.971
G1 F1800 X-49.259 Y-40.491 E103.53533
G0 F9000 X-49.259 Y-39.926
G1 F1800 X-45.739 Y-36.406 E103.70090
G0 F9000 X-45.739 Y-35.840
G1 F1800 X-49.259 Y-39.360 E103.86647
G0 F9000 X-49.259 Y-38.794
G1 F1800 X-45.739 Y-35.274 E104.03204
G0 F9000 X-45.739 Y-34.709
G1 F1800 X-49.259 Y-38.229 E104.19761
G0 F9000 X-49.259 Y-37.663
G1 F1800 X-45.739 Y-34.143 E104.36318
G0 F9000 X-45.739 Y-33.577
G1 F1800 X-49.259 Y-37.097 E104.52875
G0 F9000 X-49.259 Y-36.531
G1 F1800 X-45.739 Y-33.011 E104.69432
G0 F9000 X-45.739 Y-32.446
G1 F1800 X-49.259 Y-35.966 E104.85989
G0 F9000 X-49.259 Y-35.400
G1 F1800 X-45.739 Y-31.880 E105.02546
G0 F9000 X-45.739 Y-31.314
G1 F1800 X-49.259 Y-34.834 E105.19103
G0 F9000 X-49.259 Y-34.269
G1 F1800 X-45.739 Y-30.749 E105.35660
G0 F9000 X-45.739 Y-30.183
G1 F1800 X-49.259 Y-33.703 E105.52217
G0 F9000 X-49.259 Y-33.137
G1 F1800 X-45.739 Y-29.617 E105.68774
G0 F9000 X-45.739 Y-29.052
G1 F1800 X-49.259 Y-32.572 E105.85331
G0 F9000 X-49.259 Y-32.006
G1 F1800 X-45.739 Y-28.486 E106.01888
G0 F9000 X-45.739 Y-27.920
G1 F1800 X-49.259 Y-31.440 E106.18445
G0 F9000 X-49.259 Y-30.875
G1 F1800 X-45.739 Y-27.355 E106.35002
G0 F9000 X-45.739 Y-26.789
G1 F1800 X-49.259 Y-30.309 E106.51559
G0 F9000 X-49.259 Y-29.743
G1 F1800 X-45.739 Y-26.223 E106.68116
G0 F9000 X-45.739 Y-25.658
G1 F1800 X-49.259 Y-29.178 E106.84673
G0 F9000 X-49.259 Y-28.612
G1 F1800 X-45.739 Y-25.092 E107.01230
G0 F9000 X-45.739 Y-24.526
G1 F1800 X-49.259 Y-28.046 E107.17787
G0 F9000 X-49.259 Y-27.480
G1 F1800 X-45.739 Y-23.961 E107.34341
G0 F9000 X-45.739 Y-23.395
G1 F1800 X-49.259 Y-26.915 E107.50898
G0 F9000 X-49.259 Y-26.349
G1 F1800 X-45.739 Y-22.829 E107.67455
G0 F9000 X-45.739 Y-22.263
G1 F1800 X-49.259 Y-25.783 E107.84012
G0 F9000 X-49.259 Y-25.218
G1 F1800 X-45.739 Y-21.698 E108.00569
G0 F9000 X-45.739 Y-21.132
G1 F1800 X-49.259 Y-24.652 E108.17126
G0 F9000 X-49.259 Y-24.086
G1 F1800 X-45.739 Y-20.566 E108.33683
G0 F9000 X-45.739 Y-20.001
G1 F1800 X-49.259 Y-23.521 E108.50240
G0 F9000 X-49.259 Y-22.955
G1 F1800 X-45.739 Y-19.435 E108.66797
G0 F9000 X-45.739 Y-18.869
G1 F1800 X-49.259 Y-22.389 E108.83354
G0 F9000 X-49.259 Y-21.824
G1 F1800 X-45.739 Y-18.304 E108.99911
G0 F9000 X-45.739 Y-17.738
G1 F1800 X-49.259 Y-21.258 E109.16468
G0 F9000 X-49.259 Y-20.692
G1 F1800 X-45.739 Y-17.172 E109.33025
G0 F9000 X-45.739 Y-16.607
G1 F1800 X-49.259 Y-20.127 E109.49582
G0 F9000 X-49.259 Y-19.561
G1 F1800 X-45.739 Y-16.041 E109.66139
G0 F9000 X-45.739 Y-15.475
G1 F1800 X-49.259 Y-18.995 E109.82696
G0 F9000 X-49.259 Y-18.430
G1 F1800 X-45.739 Y-14.910 E109.99253
G0 F9000 X-45.739 Y-14.344
G1 F1800 X-49.259 Y-17.864 E110.15810
G0 F9000 X-49.259 Y-17.298
G1 F1800 X-45.739 Y-13.778 E110.32367
G0 F9000 X-45.739 Y-13.212
G1 F1800 X-49.259 Y-16.732 E110.48924
G0 F9000 X-49.259 Y-16.167
G1 F1800 X-45.739 Y-12.647 E110.65481
G0 F9000 X-45.739 Y-12.081
G1 F1800 X-49.259 Y-15.601 E110.82038
G0 F9000 X-49.259 Y-15.035
G1 F1800 X-45.739 Y-11.515 E110.98595
G0 F9000 X-45.739 Y-10.950
G1 F1800 X-49.259 Y-14.470 E111.15152
G0 F9000 X-49.259 Y-13.904
G1 F1800 X-45.739 Y-10.384 E111.31709
G0 F9000 X-45.739 Y-9.818
G1 F1800 X-49.259 Y-13.338 E111.48266
G0 F9000 X-49.259 Y-12.773
G1 F1800 X-45.739 Y-9.253 E111.64823
G0 F9000 X-45.739 Y-8.687
G1 F1800 X-49.259 Y-12.207 E111.81380
G0 F9000 X-49.259 Y-11.641
G1 F1800 X-45.739 Y-8.121 E111.97937
G0 F9000 X-45.739 Y-7.556
G1 F1800 X-49.259 Y-11.076 E112.14494
G0 F9000 X-49.259 Y-10.510
G1 F1800 X-45.739 Y-6.990 E112.31051
G0 F9000 X-45.739 Y-6.424
G1 F1800 X-49.259 Y-9.944 E112.47609
G0 F9000 X-49.259 Y-9.379
G1 F1800 X-45.739 Y-5.859 E112.64166
G0 F9000 X-45.739 Y-5.293
G1 F1800 X-49.259 Y-8.813 E112.80723
G0 F9000 X-49.259 Y-8.247
G1 F1800 X-45.739 Y-4.727 E112.97280
G0 F9000 X-45.739 Y-4.162
G1 F1800 X-49.259 Y-7.682 E113.13837
G0 F9000 X-49.259 Y-7.116
G1 F1800 X-45.739 Y-3.596 E113.30394
G0 F9000 X-45.739 Y-3.030
G1 F1800 X-49.259 Y-6.550 E113.46951
G0 F9000 X-49.259 Y-5.984
G1 F1800 X-45.739 Y-2.464 E113.63508
G0 F9000 X-45.739 Y-1.899
G1 F1800 X-49.259 Y-5.419 E113.80065
G0 F9000 X-49.259 Y-4.853
G1 F1800 X-45.739 Y-1.333 E113.96622
G0 F9000 X-45.739 Y-0.767
G1 F1800 X-49.259 Y-4.287 E114.13179
G0 F9000 X-49.259 Y-3.722
G1 F1800 X-45.739 Y-0.202 E114.29736
G0 F9000 X-45.739 Y0.363
G1 F1800 X-49.259 Y-3.156 E114.46290
G0 F9000 X-49.259 Y-2.590
G1 F1800 X-45.739 Y0.929 E114.62845
G0 F9000 X-45.739 Y1.494
G1 F1800 X-49.259 Y-2.025 E114.79399
G0 F9000 X-49.259 Y-1.459
G1 F1800 X-45.739 Y2.060 E114.95954
G0 F9000 X-45.739 Y2.626
G1 F1800 X-49.259 Y-0.893 E115.12509
G0 F9000 X-49.259 Y-0.328
G1 F1800 X-45.739 Y3.191 E115.29063
G0 F9000 X-45.739 Y3.757
G1 F1800 X-49.259 Y0.237 E115.45620
G0 F9000 X-49.259 Y0.803
G1 F1800 X-45.739 Y4.323 E115.62177
G0 F9000 X-45.739 Y4.888
G1 F1800 X-49.259 Y1.368 E115.78734
G0 F9000 X-49.259 Y1.934
G1 F1800 X-45.739 Y5.454 E115.95291
G0 F9000 X-45.739 Y6.020
G1 F1800 X-49.259 Y2.500 E116.11848
G0 F9000 X-49.259 Y3.066
G1 F1800 X-45.739 Y6.585 E116.28403
G0 F9000 X-45.739 Y7.151
G1 F1800 X-49.259 Y3.631 E116.44960
G0 F9000 X-49.259 Y4.197
G1 F1800 X-45.739 Y7.717 E116.61517
G0 F9000 X-45.739 Y8.283
G1 F1800 X-49.259 Y4.763 E116.78074
G0 F9000 X-49.259 Y5.328
G1 F1800 X-45.739 Y8.848 E116.94631
G0 F9000 X-45.739 Y9.414
G1 F1800 X-49.259 Y5.894 E117.11188
G0 F9000 X-49.259 Y6.460
G1 F1800 X-45.739 Y9.980 E117.27745
G0 F9000 X-45.739 Y10.545
G1 F1800 X-49.259 Y7.025 E117.44302
G0 F9000 X-49.259 Y7.591
G1 F1800 X-45.739 Y11.111 E117.60859
G0 F9000 X-45.739 Y11.677
G1 F1800 X-49.259 Y8.157 E117.77416
G0 F9000 X-49.259 Y8.722
G1 F1800 X-45.739 Y12.242 E117.93973
G0 F9000 X-45.739 Y12.808
G1 F1800 X-49.259 Y9.288 E118.10530
G0 F9000 X-49.259 Y9.854
G1 F1800 X-45.739 Y13.374 E118.27087
G0 F9000 X-45.739 Y13.939
G1 F1800 X-49.259 Y10.419 E118.43644
G0 F9000 X-49.259 Y10.985
G1 F1800 X-45.739 Y14.505 E118.60201
G0 F9000 X-45.739 Y15.071
G1 F1800 X-49.259 Y11.551 E118.76758
G0 F9000 X-49.259 Y12.116
G1 F1800 X-45.739 Y15.636 E118.93315
G0 F9000 X-45.739 Y16.202
G1 F1800 X-49.259 Y12.682 E119.09872
G0 F9000 X-49.259 Y13.248
G1 F1800 X-45.739 Y16.768 E119.26429
G0 F9000 X-45.739 Y17.334
G1 F1800 X-49.259 Y13.814 E119.42986
G0 F9000 X-49.259 Y14.379
G1 F1800 X-45.739 Y17.899 E119.59543
G0 F9000 X-45.739 Y18.465
G1 F1800 X-49.259 Y14.945 E119.76100
G0 F9000 X-49.259 Y15.511
G1 F1800 X-45.739 Y19.031 E119.92657
G0 F9000 X-45.739 Y19.596
G1 F1800 X-49.259 Y16.076 E120.09214
G0 F9000 X-49.259 Y16.642
G1 F1800 X-45.739 Y20.162 E120.25771
G0 F9000 X-45.739 Y20.728
G1 F1800 X-49.259 Y17.208 E120.42328
G0 F9000 X-49.259 Y17.773
G1 F1800 X-45.739 Y21.293 E120.58885
G0 F9000 X-45.739 Y21.859
G1 F1800 X-49.259 Y18.339 E120.75442
G0 F9000 X-49.259 Y18.905
G1 F1800 X-45.739 Y22.425 E120.91999
G0 F9000 X-45.739 Y22.990
G1 F1800 X-49.259 Y19.470 E121.08556
G0 F9000 X-49.259 Y20.036
G1 F1800 X-45.739 Y23.556 E121.25113
G0 F9000 X-45.739 Y24.122
G1 F1800 X-49.259 Y20.602 E121.41670
G0 F9000 X-49.259 Y21.167
G1 F1800 X-45.739 Y24.687 E121.58227
G0 F9000 X-45.739 Y25.253
G1 F1800 X-49.259 Y21.733 E121.74784
G0 F9000 X-49.259 Y22.299
G1 F1800 X-45.739 Y25.819 E121.91341
G0 F9000 X-45.739 Y26.384
G1 F1800 X-49.259 Y22.865 E122.07896
G0 F9000 X-49.259 Y23.430
G1 F1800 X-45.739 Y26.950 E122.24453
G0 F9000 X-45.739 Y27.516
G1 F1800 X-49.259 Y23.996 E122.41010
G0 F9000 X-49.259 Y24.562
G1 F1800 X-45.739 Y28.082 E122.57567
G0 F9000 X-45.739 Y28.647
G1 F1800 X-49.259 Y25.127 E122.74124
G0 F9000 X-49.259 Y25.693
G1 F1800 X-45.739 Y29.213 E122.90681
G0 F9000 X-45.739 Y29.779
G1 F1800 X-49.259 Y26.259 E123.07238
G0 F9000 X-49.259 Y26.824
G1 F1800 X-45.739 Y30.344 E123.23795
G0 F9000 X-45.739 Y30.910
G1 F1800 X-49.259 Y27.390 E123.40352
G0 F9000 X-49.259 Y27.956
G1 F1800 X-45.739 Y31.476 E123.56909
G0 F9000 X-45.739 Y32.041
G1 F1800 X-49.259 Y28.521 E123.73466
G0 F9000 X-49.259 Y29.087
G1 F1800 X-45.739 Y32.607 E123.90023
G0 F9000 X-45.739 Y33.173
G1 F1800 X-49.259 Y29.653 E124.06580
G0 F9000 X-49.259 Y30.218
G1 F1800 X-45.739 Y33.738 E124.23137
G0 F9000 X-45.739 Y34.304
G1 F1800 X-49.259 Y30.784 E124.39694
G0 F9000 X-49.259 Y31.350
G1 F1800 X-45.739 Y34.870 E124.56251
G0 F9000 X-45.739 Y35.435
G1 F1800 X-49.259 Y31.915 E124.72808
G0 F9000 X-49.259 Y32.481
G1 F1800 X-45.739 Y36.001 E124.89365
G0 F9000 X-45.739 Y36.567
G1 F1800 X-49.259 Y33.047 E125.05922
G0 F9000 X-49.259 Y33.613
G1 F1800 X-45.739 Y37.133 E125.22479
G0 F9000 X-45.739 Y37.698
G1 F1800 X-49.259 Y34.178 E125.39036
G0 F9000 X-49.259 Y34.744
G1 F1800 X-45.739 Y38.264 E125.55593
G0 F9000 X-45.739 Y38.830
G1 F1800 X-49.259 Y35.310 E125.72150
G0 F9000 X-49.259 Y35.875
G1 F1800 X-45.739 Y39.395 E125.88707
G0 F9000 X-45.739 Y39.961
G1 F1800 X-49.259 Y36.441 E126.05264
G0 F9000 X-49.259 Y37.007
G1 F1800 X-45.739 Y40.527 E126.21821
G0 F9000 X-45.739 Y41.092
G1 F1800 X-49.259 Y37.572 E126.38378
G0 F9000 X-49.259 Y38.138
G1 F1800 X-45.739 Y41.658 E126.54935
G0 F9000 X-45.739 Y42.224
G1 F1800 X-49.259 Y38.704 E126.71492
G0 F9000 X-49.259 Y39.269
G1 F1800 X-45.739 Y42.789 E126.88049
G0 F9000 X-45.739 Y43.355
G1 F1800 X-49.259 Y39.835 E127.04606
G0 F9000 X-49.259 Y40.401
G1 F1800 X-45.739 Y43.921 E127.21163
G0 F9000 X-45.739 Y44.486
G1 F1800 X-49.259 Y40.966 E127.37720
G0 F9000 X-49.259 Y41.532
G1 F1800 X-45.739 Y45.052 E127.54277
G0 F9000 X-45.739 Y45.618
G1 F1800 X-49.259 Y42.098 E127.70834
G0 F9000 X-49.259 Y42.663
G1 F1800 X-45.739 Y46.183 E127.87391
G0 F9000 X-45.739 Y46.749
G1 F1800 X-49.259 Y43.229 E128.03948
G0 F9000 X-49.259 Y43.795
G1 F1800 X-45.739 Y47.315 E128.20505
G0 F9000 X-45.739 Y47.881
G1 F1800 X-49.259 Y44.361 E128.37062
G0 F9000 X-49.259 Y44.926
G1 F1800 X-45.739 Y48.446 E128.53619
G0 F9000 X-45.739 Y49.012
G1 F1800 X-49.259 Y45.492 E128.70176
G0 F9000 X-49.259 Y46.058
G1 F1800 X-46.058 Y49.259 E128.85232
G0 F9000 X-46.623 Y49.259
G1 F1800 X-49.259 Y46.623 E128.97631
G0 F9000 X-49.259 Y47.189
G1 F1800 X-47.189 Y49.259 E129.07368
G0 F9000 X-47.755 Y49.259
G1 F1800 X-49.259 Y47.755 E129.14442
G0 F9000 X-49.259 Y48.320
G1 F1800 X-48.320 Y49.259 E129.18859
G0 F9000 X-48.886 Y49.259
G1 F1800 X-49.259 Y48.886 E129.20613
G0 F9000 X-45.541 Y-45.541
G0 X-36.406 Y-45.739
G1 F1800 X-39.926 Y-49.259 E129.37170
G0 F9000 X-39.360 Y-49.259
G1 F1800 X-35.840 Y-45.739 E129.53727
G0 F9000 X-35.274 Y-45.739
G1 F1800 X-38.794 Y-49.259 E129.70284
G0 F9000 X-38.229 Y-49.259
G1 F1800 X-34.709 Y-45.739 E129.86841
G0 F9000 X-34.143 Y-45.739
G1 F1800 X-37.663 Y-49.259 E130.03398
G0 F9000 X-37.097 Y-49.259
G1 F1800 X-33.577 Y-45.739 E130.19955
G0 F9000 X-33.011 Y-45.739
G1 F1800 X-36.531 Y-49.259 E130.36512
G0 F9000 X-35.966 Y-49.259
G1 F1800 X-32.446 Y-45.739 E130.53069
G0 F9000 X-31.880 Y-45.739
G1 F1800 X-35.400 Y-49.259 E130.69626
G0 F9000 X-34.834 Y-49.259
G1 F1800 X-31.314 Y-45.739 E130.86183
G0 F9000 X-30.749 Y-45.739
G1 F1800 X-34.269 Y-49.259 E131.02740
G0 F9000 X-33.703 Y-49.259
G1 F1800 X-30.183 Y-45.739 E131.19297
G0 F9000 X-29.617 Y-45.739
G1 F1800 X-33.137 Y-49.259 E131.35854
G0 F9000 X-32.572 Y-49.259
G1 F1800 X-29.052 Y-45.739 E131.52411
G0 F9000 X-28.486 Y-45.739
G1 F1800 X-32.006 Y-49.259 E131.68968
G0 F9000 X-31.440 Y-49.259
G1 F1800 X-27.920 Y-45.739 E131.85525
G0 F9000 X-27.355 Y-45.739
G1 F1800 X-30.875 Y-49.259 E132.02082
G0 F9000 X-30.309 Y-49.259
G1 F1800 X-26.789 Y-45.739 E132.18639
G0 F9000 X-26.223 Y-45.739
G1 F1800 X-29.743 Y-49.259 E132.35196
G0 F9000 X-29.178 Y-49.259
G1 F1800 X-25.658 Y-45.739 E132.51753
