;Generated with Cura_SteamEngine 15.01
; Default start code
; Set bed temperature
M140 S60
; Activate all used extruder
M104 T0 S190
G28 ; Home extruder
G1 Z15 F5000
M107 ; Turn off fan
G90 ; Absolute positioning
M82 ; Extruder in absolute mode
G92 E0 ; Reset extruder position
; Wait for hot bed to reach temperature
M190 S60
; Wait for all used extruders to reach temperature
M109 T0 S190
;Layer count: 150
;LAYER:0
M107
G0 F9000 X19.748 Y-0.701 Z0.200
;TYPE:SKIRT
G1 F1800 X19.848 Y-0.052 E0.02184
G1 X19.242 Y4.548 E0.17616
G1 X19.144 Y5.184 E0.19756
G1 X17.189 Y9.906 E0.36754
G1 X14.041 Y14.015 E0.53971
G1 X9.923 Y17.182 E0.71249
G1 X5.135 Y19.164 E0.88485
G1 X0.000 Y19.842 E1.05712
G1 X-5.135 Y19.164 E1.22939
G1 X-9.921 Y17.183 E1.40168
G1 X-14.029 Y14.029 E1.57393
G1 X-17.173 Y9.934 E1.74565
G1 X-19.158 Y5.152 E1.91786
G1 X-19.748 Y0.701 E2.06719
G1 X-19.848 Y0.052 E2.08903
G1 X-19.242 Y-4.548 E2.24335
G1 X-19.144 Y-5.184 E2.26475
G1 X-17.189 Y-9.906 E2.43474
G1 X-14.041 Y-14.015 E2.60690
G1 X-9.923 Y-17.182 E2.77968
G1 X-5.135 Y-19.164 E2.95204
G1 X0.000 Y-19.842 E3.12431
G1 X5.135 Y-19.164 E3.29659
G1 X9.921 Y-17.183 E3.46887
G1 X14.029 Y-14.029 E3.64112
G1 X17.173 Y-9.934 E3.81284
G1 X19.158 Y-5.152 E3.98505
G1 X19.748 Y-0.701 E4.13438
G0 F9000 X19.355 Y-0.630
G1 F1800 X19.444 Y-0.048 E4.15396
G1 X18.846 Y4.491 E4.30624
G1 X18.756 Y5.075 E4.32589
G1 X16.839 Y9.704 E4.49253
G1 X13.755 Y13.730 E4.66121
G1 X9.721 Y16.833 E4.83048
G1 X5.031 Y18.775 E4.99932
G1 X0.000 Y19.438 E5.16809
G1 X-5.031 Y18.775 E5.33687
G1 X-9.719 Y16.833 E5.50565
G1 X-13.744 Y13.744 E5.67440
G1 X-16.824 Y9.732 E5.84262
G1 X-18.769 Y5.047 E6.01134
G1 X-19.355 Y0.630 E6.15954
G1 X-19.444 Y0.048 E6.17912
G1 X-18.846 Y-4.491 E6.33140
G1 X-18.756 Y-5.075 E6.35105
G1 X-16.839 Y-9.704 E6.51769
G1 X-13.755 Y-13.730 E6.68637
G1 X-9.721 Y-16.833 E6.85564
G1 X-5.031 Y-18.775 E7.02447
G1 X0.000 Y-19.438 E7.19325
G1 X5.031 Y-18.775 E7.36203
G1 X9.719 Y-16.833 E7.53080
G1 X13.744 Y-13.744 E7.69956
G1 X16.824 Y-9.732 E7.86778
G1 X18.769 Y-5.047 E8.03650
G1 X19.355 Y-0.630 E8.18470
G0 F9000 X18.959 Y-0.569
G1 F1800 X19.040 Y-0.044 E8.20237
G1 X18.450 Y4.435 E8.35263
G1 X18.368 Y4.967 E8.37053
G1 X16.490 Y9.503 E8.53382
G1 X13.469 Y13.445 E8.69900
G1 X9.519 Y16.483 E8.86474
G1 X4.926 Y18.385 E9.03009
G1 X0.000 Y19.035 E9.19535
G1 X-4.926 Y18.385 E9.36061
G1 X-9.517 Y16.484 E9.52588
G1 X-13.459 Y13.459 E9.69114
G1 X-16.475 Y9.530 E9.85588
G1 X-18.379 Y4.943 E10.02107
G1 X-18.959 Y0.569 E10.16782
G1 X-19.040 Y0.044 E10.18549
G1 X-18.450 Y-4.435 E10.33575
G1 X-18.368 Y-4.967 E10.35365
G1 X-16.490 Y-9.503 E10.51694
G1 X-13.469 Y-13.445 E10.68213
G1 X-9.519 Y-16.483 E10.84787
G1 X-4.926 Y-18.385 E11.01321
G1 X0.000 Y-19.035 E11.17847
G1 X4.926 Y-18.385 E11.34373
G1 X9.517 Y-16.484 E11.50900
G1 X13.459 Y-13.459 E11.67427
G1 X16.475 Y-9.530 E11.83901
G1 X18.379 Y-4.943 E12.00419
G1 X18.959 Y-0.569 E12.15095
G0 F9000 X18.565 Y-0.503
G1 F1800 X18.636 Y-0.039 E12.16656
G1 X18.054 Y4.378 E12.31474
G1 X17.980 Y4.858 E12.33089
G1 X16.140 Y9.301 E12.49084
G1 X13.184 Y13.160 E12.65252
G1 X9.317 Y16.134 E12.81477
G1 X4.822 Y17.995 E12.97658
G1 X0.000 Y18.631 E13.13835
G1 X-4.822 Y17.995 E13.30012
G1 X-9.316 Y16.135 E13.46189
G1 X-13.173 Y13.174 E13.62362
G1 X-16.126 Y9.328 E13.78489
G1 X-17.989 Y4.838 E13.94657
G1 X-18.567 Y0.486 E14.09259
G1 X-18.636 Y0.039 E14.10764
G1 X-18.054 Y-4.378 E14.25582
G1 X-17.980 Y-4.858 E14.27197
G1 X-16.140 Y-9.301 E14.43192
G1 X-13.184 Y-13.160 E14.59360
G1 X-9.317 Y-16.134 E14.75585
G1 X-4.822 Y-17.995 E14.91766
G1 X0.000 Y-18.631 E15.07943
G1 X4.822 Y-17.995 E15.24120
G1 X9.316 Y-16.135 E15.40297
G1 X13.173 Y-13.174 E15.56470
G1 X16.126 Y-9.328 E15.72597
G1 X17.989 Y-4.838 E15.88765
G1 X18.565 Y-0.503 E16.03310
G0 F9000 X18.161 Y-0.500
G1 F1800 X18.232 Y-0.035 E16.04875
G1 X17.658 Y4.321 E16.19488
G1 X17.592 Y4.750 E16.20932
G1 X15.791 Y9.100 E16.36591
G1 X12.898 Y12.875 E16.52410
G1 X9.115 Y15.785 E16.68284
G1 X4.717 Y17.606 E16.84116
G1 X0.000 Y18.228 E16.99941
G1 X-4.717 Y17.606 E17.15765
G1 X-9.114 Y15.785 E17.31594
G1 X-12.888 Y12.888 E17.47419
G1 X-15.776 Y9.126 E17.63193
G1 X-17.600 Y4.733 E17.79013
G1 X-18.161 Y0.500 E17.93216
G1 X-18.232 Y0.035 E17.94780
G1 X-17.658 Y-4.321 E18.09393
G1 X-17.592 Y-4.750 E18.10837
G1 X-15.791 Y-9.100 E18.26496
G1 X-12.898 Y-12.875 E18.42315
G1 X-9.115 Y-15.785 E18.58189
G1 X-4.717 Y-17.606 E18.74021
G1 X0.000 Y-18.228 E18.89846
G1 X4.717 Y-17.606 E19.05671
G1 X9.114 Y-15.785 E19.21500
G1 X12.888 Y-12.888 E19.37324
G1 X15.776 Y-9.126 E19.53098
G1 X17.600 Y-4.733 E19.68919
G1 X18.161 Y-0.500 E19.83121
G1 F3000 E14.83121
G1 Z0.700
G0 F9000 X14.395 Y0.001
;TYPE:WALL-INNER
G1 Z0.200
G1 F3000 E19.83121
G1 F1800 X13.904 Y3.725 E19.95614
G1 X12.471 Y7.185 E20.08070
G1 X10.187 Y10.166 E20.20560
G1 X7.195 Y12.467 E20.33114
G1 X3.726 Y13.903 E20.45602
G1 X0.000 Y14.395 E20.58102
G1 X-3.726 Y13.903 E20.70602
G1 X-7.198 Y12.466 E20.83100
G1 X-10.178 Y10.178 E20.95596
G1 X-12.458 Y7.208 E21.08050
G1 X-13.898 Y3.739 E21.20542
G1 X-14.395 Y-0.001 E21.33091
G1 X-13.904 Y-3.725 E21.45584
G1 X-12.471 Y-7.185 E21.58040
G1 X-10.187 Y-10.166 E21.70531
G1 X-7.195 Y-12.467 E21.83085
G1 X-3.726 Y-13.903 E21.95572
G1 X0.000 Y-14.395 E22.08072
G1 X3.726 Y-13.903 E22.20573
G1 X7.198 Y-12.466 E22.33070
G1 X10.178 Y-10.178 E22.45566
G1 X12.458 Y-7.208 E22.58020
G1 X13.898 Y-3.739 E22.70512
G1 X14.395 Y0.001 E22.83061
G0 F9000 X14.798 Y0.002
;TYPE:WALL-OUTER
G1 F1800 X14.294 Y3.826 E22.95890
G1 X12.820 Y7.386 E23.08705
G1 X10.471 Y10.452 E23.21551
G1 X7.399 Y12.815 E23.34442
G1 X3.827 Y14.294 E23.47301
G1 X0.000 Y14.799 E23.60140
G1 X-3.827 Y14.294 E23.72979
G1 X-7.399 Y12.815 E23.85837
G1 X-10.463 Y10.463 E23.98685
G1 X-12.807 Y7.410 E24.11487
G1 X-14.289 Y3.839 E24.24346
G1 X-14.798 Y-0.002 E24.37233
G1 X-14.294 Y-3.826 E24.50062
G1 X-12.820 Y-7.386 E24.62877
G1 X-10.471 Y-10.452 E24.75723
G1 X-7.399 Y-12.815 E24.88614
G1 X-3.827 Y-14.294 E25.01473
G1 X0.000 Y-14.799 E25.14312
G1 X3.827 Y-14.294 E25.27151
G1 X7.399 Y-12.815 E25.40009
G1 X10.463 Y-10.463 E25.52856
G1 X12.807 Y-7.410 E25.65658
G1 X14.288 Y-3.843 E25.78504
G1 X14.798 Y0.002 E25.91405
G0 F9000 X14.228 Y-0.196
;TYPE:SKIN
G1 F1800 X0.197 Y-14.227 E26.57402
G0 F9000 X-0.347 Y-14.207
G1 F1800 X14.208 Y0.349 E27.25867
G0 F9000 X14.142 Y0.849
G1 F1800 X-0.847 Y-14.141 E27.96373
G0 F9000 X-1.347 Y-14.075
G1 F1800 X14.076 Y1.348 E28.68918
G0 F9000 X14.010 Y1.848
G1 F1800 X-1.846 Y-14.009 E29.43502
G0 F9000 X-2.346 Y-13.943
G1 F1800 X13.944 Y2.348 E30.20128
G0 F9000 X13.878 Y2.847
G1 F1800 X-2.846 Y-13.877 E30.98792
G0 F9000 X-3.346 Y-13.811
G1 F1800 X13.812 Y3.347 E31.79498
G0 F9000 X13.714 Y3.814
G1 F1800 X-3.814 Y-13.714 E32.61944
G0 F9000 X-4.214 Y-13.548
G1 F1800 X13.548 Y4.215 E33.45494
G0 F9000 X13.382 Y4.614
G1 F1800 X-4.614 Y-13.382 E34.30141
G0 F9000 X-5.014 Y-13.217
G1 F1800 X13.217 Y5.014 E35.15895
G0 F9000 X13.051 Y5.415
G1 F1800 X-5.414 Y-13.051 E36.02751
G0 F9000 X-5.814 Y-12.885
G1 F1800 X12.885 Y5.814 E36.90705
G0 F9000 X12.720 Y6.214
G1 F1800 X-6.214 Y-12.720 E37.79765
G0 F9000 X-6.614 Y-12.553
G1 F1800 X12.553 Y6.614 E38.69920
G0 F9000 X12.388 Y7.014
G1 F1800 X-7.014 Y-12.388 E39.61181
G0 F9000 X-7.356 Y-12.164
G1 F1800 X12.162 Y7.354 E40.52988
G0 F9000 X11.917 Y7.674
G1 F1800 X-7.675 Y-11.918 E41.45143
G0 F9000 X-7.995 Y-11.672
G1 F1800 X11.672 Y7.995 E42.37650
G0 F9000 X11.426 Y8.315
G1 F1800 X-8.315 Y-11.426 E43.30506
G0 F9000 X-8.635 Y-11.180
G1 F1800 X11.182 Y8.636 E44.23717
G0 F9000 X10.936 Y8.956
G1 F1800 X-8.954 Y-10.934 E45.17273
G0 F9000 X-9.275 Y-10.689
G1 F1800 X10.691 Y9.277 E46.11187
G0 F9000 X10.446 Y9.597
G1 F1800 X-9.594 Y-10.443 E47.05449
G0 F9000 X-9.914 Y-10.197
G1 F1800 X10.200 Y9.917 E48.00059
G0 F9000 X9.914 Y10.197
G1 F1800 X-10.200 Y-9.917 E48.94669
G0 F9000 X-10.446 Y-9.597
G1 F1800 X9.594 Y10.443 E49.88931
G0 F9000 X9.275 Y10.689
G1 F1800 X-10.691 Y-9.277 E50.82845
G0 F9000 X-10.936 Y-8.956
G1 F1800 X8.954 Y10.934 E51.76402
G0 F9000 X8.635 Y11.180
G1 F1800 X-11.182 Y-8.636 E52.69613
G0 F9000 X-11.426 Y-8.315
G1 F1800 X8.315 Y11.426 E53.62468
G0 F9000 X7.995 Y11.672
G1 F1800 X-11.672 Y-7.995 E54.54976
G0 F9000 X-11.917 Y-7.674
G1 F1800 X7.675 Y11.918 E55.47130
G0 F9000 X7.356 Y12.164
G1 F1800 X-12.162 Y-7.354 E56.38937
G0 F9000 X-12.388 Y-7.014
G1 F1800 X7.014 Y12.388 E57.30198
G0 F9000 X6.614 Y12.553
G1 F1800 X-12.553 Y-6.614 E58.20354
G0 F9000 X-12.720 Y-6.214
G1 F1800 X6.214 Y12.720 E59.09414
G0 F9000 X5.814 Y12.885
G1 F1800 X-12.885 Y-5.814 E59.97368
G0 F9000 X-13.051 Y-5.415
G1 F1800 X5.414 Y13.051 E60.84224
G0 F9000 X5.014 Y13.217
G1 F1800 X-13.217 Y-5.014 E61.69977
G0 F9000 X-13.382 Y-4.614
G1 F1800 X4.614 Y13.382 E62.54625
G0 F9000 X4.214 Y13.548
G1 F1800 X-13.548 Y-4.215 E63.38174
G0 F9000 X-13.714 Y-3.814
G1 F1800 X3.814 Y13.714 E64.20620
G0 F9000 X3.346 Y13.811
G1 F1800 X-13.812 Y-3.347 E65.01326
G0 F9000 X-13.878 Y-2.847
G1 F1800 X2.846 Y13.877 E65.79991
G0 F9000 X2.346 Y13.943
G1 F1800 X-13.944 Y-2.348 E66.56616
G0 F9000 X-14.010 Y-1.848
G1 F1800 X1.846 Y14.009 E67.31201
G0 F9000 X1.347 Y14.075
G1 F1800 X-14.076 Y-1.348 E68.03746
G0 F9000 X-14.142 Y-0.849
G1 F1800 X0.847 Y14.141 E68.74252
G0 F9000 X0.347 Y14.207
G1 F1800 X-14.208 Y-0.349 E69.42716
G0 F9000 X-14.228 Y0.196
G1 F1800 X-0.197 Y14.227 E70.08714
G0 F9000 X-0.849 Y14.141
G1 F1800 X-14.141 Y0.849 E70.71235
G0 F9000 X-14.054 Y1.501
G1 F1800 X-1.501 Y14.055 E71.30283
G0 F9000 X-2.153 Y13.968
G1 F1800 X-13.967 Y2.154 E71.85853
G0 F9000 X-13.880 Y2.807
G1 F1800 X-2.804 Y13.883 E72.37951
G0 F9000 X-3.456 Y13.797
G1 F1800 X-13.793 Y3.459 E72.86575
G0 F9000 X-13.507 Y4.311
G1 F1800 X-4.309 Y13.509 E73.29840
G0 F9000 X-5.275 Y13.109
G1 F1800 X-13.105 Y5.279 E73.66670
G0 F9000 X-12.703 Y6.246
G1 F1800 X-6.240 Y12.709 E73.97070
G0 F9000 X-7.327 Y12.188
G1 F1800 X-12.185 Y7.330 E74.19920
G0 F9000 X-10.320 Y9.761
G1 F1800 X-9.761 Y10.320 E74.22549
G0 F9000 X14.141 Y-0.849
G1 F1800 X0.849 Y-14.141 E74.85071
G0 F9000 X1.501 Y-14.055
G1 F1800 X14.054 Y-1.501 E75.44119
G0 F9000 X13.967 Y-2.154
G1 F1800 X2.153 Y-13.968 E75.99688
G0 F9000 X2.804 Y-13.883
G1 F1800 X13.880 Y-2.807 E76.51786
G0 F9000 X13.793 Y-3.459
G1 F1800 X3.456 Y-13.797 E77.00411
G0 F9000 X4.309 Y-13.509
G1 F1800 X13.507 Y-4.311 E77.43675
G0 F9000 X13.105 Y-5.279
G1 F1800 X5.275 Y-13.109 E77.80505
G0 F9000 X6.240 Y-12.709
G1 F1800 X12.703 Y-6.246 E78.10905
G0 F9000 X12.185 Y-7.330
G1 F1800 X7.327 Y-12.188 E78.33756
G0 F9000 X9.761 Y-10.320
G1 F1800 X10.320 Y-9.761 E78.36385
;LAYER:1
M106 S89
G0 F9000 X10.178 Y-10.178 Z0.400
;TYPE:WALL-INNER
G1 F2220 X12.465 Y-7.199 E78.48876
G1 X13.903 Y-3.727 E78.61376
G1 X14.394 Y0.003 E78.73889
G1 X13.904 Y3.723 E78.86368
G1 X12.466 Y7.198 E78.98877
G1 X10.176 Y10.180 E79.11382
G1 X7.198 Y12.466 E79.23869
G1 X3.726 Y13.903 E79.36367
G1 X0.000 Y14.395 E79.48867
G1 X-3.726 Y13.903 E79.61367
G1 X-7.198 Y12.466 E79.73865
G1 X-10.178 Y10.178 E79.86361
G1 X-12.465 Y7.199 E79.98852
G1 X-13.903 Y3.727 E80.11351
G1 X-14.394 Y-0.003 E80.23865
G1 X-13.904 Y-3.723 E80.36344
G1 X-12.466 Y-7.198 E80.48853
G1 X-10.176 Y-10.180 E80.61358
G1 X-7.198 Y-12.466 E80.73845
G1 X-3.726 Y-13.903 E80.86342
G1 X0.000 Y-14.395 E80.98843
G1 X3.726 Y-13.903 E81.11343
G1 X7.198 Y-12.466 E81.23841
G1 X10.178 Y-10.178 E81.36337
G0 F9000 X10.463 Y-10.463
;TYPE:WALL-OUTER
G1 F1980 X12.807 Y-7.410 E81.49139
G1 X12.814 Y-7.401 E81.49177
G1 X14.288 Y-3.842 E81.61989
G1 X14.293 Y-3.831 E81.62029
G1 X14.796 Y-0.011 E81.74844
G1 X14.798 Y0.003 E81.74891
G1 X14.297 Y3.813 E81.87673
G1 X12.820 Y7.387 E82.00535
G1 X10.471 Y10.453 E82.13381
G1 X10.464 Y10.463 E82.13422
G1 X7.399 Y12.815 E82.26272
G1 X3.827 Y14.294 E82.39130
G1 X0.000 Y14.799 E82.51969
G1 X-3.827 Y14.294 E82.64808
G1 X-7.399 Y12.815 E82.77667
G1 X-10.463 Y10.463 E82.90514
G1 X-12.807 Y7.410 E83.03316
G1 X-12.814 Y7.401 E83.03354
G1 X-14.288 Y3.842 E83.16166
G1 X-14.293 Y3.831 E83.16207
G1 X-14.796 Y0.011 E83.29022
G1 X-14.798 Y-0.003 E83.29069
G1 X-14.297 Y-3.813 E83.41850
G1 X-12.820 Y-7.387 E83.54712
G1 X-10.471 Y-10.453 E83.67559
G1 X-10.464 Y-10.463 E83.67599
G1 X-7.399 Y-12.815 E83.80449
G1 X-3.827 Y-14.294 E83.93308
G1 X0.000 Y-14.799 E84.06147
G1 X3.827 Y-14.294 E84.18986
G1 X7.399 Y-12.815 E84.31844
G1 X10.463 Y-10.463 E84.44692
G0 F9000 X10.200 Y-9.917
;TYPE:SKIN
G1 F2100 X-9.917 Y10.200 E85.39316
G0 F9000 X-10.200 Y9.917
G1 F2100 X9.917 Y-10.200 E86.33940
G0 F9000 X9.598 Y-10.446
G1 F2100 X-10.446 Y9.597 E87.28218
G0 F9000 X-10.691 Y9.277
G1 F2100 X9.277 Y-10.692 E88.22144
G0 F9000 X8.957 Y-10.937
G1 F2100 X-10.936 Y8.956 E89.15715
G0 F9000 X-11.182 Y8.637
G1 F2100 X8.638 Y-11.183 E90.08942
G0 F9000 X8.317 Y-11.428
G1 F2100 X-11.428 Y8.316 E91.01814
G0 F9000 X-11.673 Y7.996
G1 F2100 X7.998 Y-11.675 E91.94340
G0 F9000 X7.677 Y-11.920
G1 F2100 X-11.919 Y7.677 E92.86516
G0 F9000 X-12.165 Y7.356
G1 F2100 X7.357 Y-12.165 E93.78339
G0 F9000 X7.015 Y-12.389
G1 F2100 X-12.387 Y7.013 E94.69600
G0 F9000 X-12.553 Y6.614
G1 F2100 X6.615 Y-12.555 E95.59763
G0 F9000 X6.215 Y-12.720
G1 F2100 X-12.719 Y6.214 E96.48823
G0 F9000 X-12.884 Y5.813
G1 F2100 X5.815 Y-12.886 E97.36777
G0 F9000 X5.415 Y-13.052
G1 F2100 X-13.050 Y5.413 E98.23631
G0 F9000 X-13.216 Y5.014
G1 F2100 X5.015 Y-13.217 E99.09384
G0 F9000 X4.615 Y-13.383
G1 F2100 X-13.381 Y4.613 E99.94032
G0 F9000 X-13.547 Y4.213
G1 F2100 X4.215 Y-13.548 E100.77576
G0 F9000 X3.815 Y-13.715
G1 F2100 X-13.713 Y3.814 E101.60025
G0 F9000 X-13.810 Y3.345
G1 F2100 X3.346 Y-13.811 E102.40722
G0 F9000 X2.847 Y-13.878
G1 F2100 X-13.876 Y2.846 E103.19384
G0 F9000 X-13.942 Y2.346
G1 F2100 X2.347 Y-13.944 E103.96005
G0 F9000 X1.847 Y-14.009
G1 F2100 X-14.008 Y1.846 E104.70582
G0 F9000 X-14.074 Y1.346
G1 F2100 X1.348 Y-14.076 E105.43122
G0 F9000 X0.848 Y-14.142
G1 F2100 X-14.140 Y0.847 E106.13623
G0 F9000 X-14.206 Y0.347
G1 F2100 X0.348 Y-14.207 E106.82081
G0 F9000 X-0.196 Y-14.228
G1 F2100 X-14.226 Y-0.197 E107.48076
G0 F9000 X-14.141 Y-0.849
G1 F2100 X-0.848 Y-14.142 E108.10602
G0 F9000 X-1.500 Y-14.055
G1 F2100 X-14.055 Y-1.501 E108.69655
G0 F9000 X-13.969 Y-2.152
G1 F2100 X-2.152 Y-13.969 E109.25238
G0 F9000 X-2.803 Y-13.884
G1 F2100 X-13.883 Y-2.804 E109.77355
G0 F9000 X-13.797 Y-3.456
G1 F2100 X-3.455 Y-13.797 E110.25999
G0 F9000 X-4.309 Y-13.509
G1 F2100 X-13.508 Y-4.310 E110.69268
G0 F9000 X-13.109 Y-5.275
G1 F2100 X-5.274 Y-13.110 E111.06121
G0 F9000 X-6.240 Y-12.710
G1 F2100 X-12.709 Y-6.240 E111.36552
G0 F9000 X-12.188 Y-7.327
G1 F2100 X-7.326 Y-12.189 E111.59421
G0 F9000 X-9.759 Y-10.322
G1 F2100 X-10.318 Y-9.763 E111.62050
G0 F9000 X-9.598 Y10.446
G1 F2100 X10.446 Y-9.597 E112.56329
G0 F9000 X10.691 Y-9.277
G1 F2100 X-9.277 Y10.692 E113.50255
G0 F9000 X-8.957 Y10.937
G1 F2100 X10.936 Y-8.956 E114.43825
G0 F9000 X11.182 Y-8.637
G1 F2100 X-8.638 Y11.183 E115.37052
G0 F9000 X-8.317 Y11.428
G1 F2100 X11.428 Y-8.316 E116.29925
G0 F9000 X11.673 Y-7.996
G1 F2100 X-7.998 Y11.675 E117.22451
G0 F9000 X-7.677 Y11.920
G1 F2100 X11.919 Y-7.677 E118.14627
G0 F9000 X12.165 Y-7.356
G1 F2100 X-7.357 Y12.165 E119.06450
G0 F9000 X-7.015 Y12.389
G1 F2100 X12.387 Y-7.013 E119.97711
G0 F9000 X12.553 Y-6.614
G1 F2100 X-6.615 Y12.555 E120.87874
G0 F9000 X-6.215 Y12.720
G1 F2100 X12.719 Y-6.214 E121.76933
G0 F9000 X12.884 Y-5.813
G1 F2100 X-5.815 Y12.886 E122.64888
G0 F9000 X-5.415 Y13.052
G1 F2100 X13.050 Y-5.413 E123.51742
G0 F9000 X13.216 Y-5.014
G1 F2100 X-5.015 Y13.217 E124.37495
G0 F9000 X-4.615 Y13.383
G1 F2100 X13.381 Y-4.613 E125.22142
G0 F9000 X13.547 Y-4.213
